Assets/_Volumes/LUT/comicbook.cube
#Created by: Adobe Photoshop Export Color Lookup Plugin
TITLE "comicbook LUT.psd"
#LUT size
LUT_3D_SIZE 8
#data domain
#LUT data points
DOMAIN_MIN 0.000000 0.000000 0.000000
DOMAIN_MAX 0.903226 0.903226 0.903226
0.099518 0.062500 0.129150
0.099518 0.062500 0.129150
0.099518 0.062500 0.129150
0.099518 0.062500 0.129150
0.132813 0.098480 0.204437
0.283417 0.295410 0.596863
0.358856 0.513306 0.922668
0.317657 0.685822 0.972260
0.099518 0.062500 0.129150
0.099518 0.062500 0.129150
0.099518 0.062500 0.129150
0.099518 0.062500 0.129150
0.132813 0.098480 0.204437
0.283417 0.295410 0.596863
0.358856 0.513306 0.922668
0.317657 0.685822 0.972260
0.099518 0.062500 0.129150
0.099518 0.062500 0.129150
0.099518 0.062500 0.129150
0.099518 0.062500 0.129150
0.132813 0.098480 0.204437
0.283417 0.295410 0.596863
0.358856 0.513306 0.922668
0.317657 0.685822 0.972260
0.099518 0.062500 0.129150
0.099518 0.062500 0.129150
0.099518 0.062500 0.129150
0.099518 0.062500 0.129150
0.132813 0.098480 0.204437
0.283417 0.295410 0.596863
0.358856 0.513306 0.922668
0.317657 0.685822 0.972260
0.187836 0.163269 0.338165
0.187836 0.163269 0.338165
0.187836 0.163269 0.338165
0.187836 0.163269 0.338165
0.244415 0.238892 0.485046
0.348236 0.436066 0.832520
0.354584 0.610596 0.999084
0.233582 0.703308 0.813873
0.359161 0.517181 0.926453
0.359161 0.517181 0.926453
0.359161 0.517181 0.926453
0.359161 0.517181 0.926453
0.359375 0.568115 0.972595
0.326233 0.679352 0.985596
0.188751 0.711548 0.695770
0.364258 0.984009 0.575592
0.194275 0.703003 0.718750
0.194275 0.703003 0.718750
0.194275 0.703003 0.718750
0.194275 0.703003 0.718750
0.196075 0.750641 0.670410
0.303162 0.927338 0.590363
0.590790 1.000000 0.469910
0.715118 0.987823 0.335083
0.617065 1.000000 0.430084
0.617065 1.000000 0.430084
0.617065 1.000000 0.430084
0.617065 1.000000 0.430084
0.648468 1.000000 0.393616
0.726532 0.971588 0.326569
0.836823 0.815247 0.295624
0.982452 0.681152 0.321136
0.099518 0.062500 0.129150
0.099518 0.062500 0.129150
0.099518 0.062500 0.129150
0.099518 0.062500 0.129150
0.132813 0.098480 0.204437
0.283417 0.295410 0.596863
0.358856 0.513306 0.922668
0.317657 0.685822 0.972260
0.099518 0.062500 0.129150
0.099518 0.062500 0.129150
0.099518 0.062500 0.129150
0.099518 0.062500 0.129150
0.132813 0.098480 0.204437
0.283417 0.295410 0.596863
0.358856 0.513306 0.922668
0.317657 0.685822 0.972260
0.099518 0.062500 0.129150
0.099518 0.062500 0.129150
0.099518 0.062500 0.129150
0.099518 0.062500 0.129150
0.132813 0.098480 0.204437
0.283417 0.295410 0.596863
0.358856 0.513306 0.922668
0.317657 0.685822 0.972260
0.099518 0.062500 0.129150
0.099518 0.062500 0.129150
0.099518 0.062500 0.129150
0.099518 0.062500 0.129150
0.132813 0.098480 0.204437
0.283417 0.295410 0.596863
0.358856 0.513306 0.922668
0.317657 0.685822 0.972260
0.187836 0.163269 0.338165
0.187836 0.163269 0.338165
0.187836 0.163269 0.338165
0.187836 0.163269 0.338165
0.244415 0.238892 0.485046
0.348236 0.436066 0.832520
0.354584 0.610596 0.999084
0.233582 0.703308 0.813873
0.359161 0.517181 0.926453
0.359161 0.517181 0.926453
0.359161 0.517181 0.926453
0.359161 0.517181 0.926453
0.359375 0.568115 0.972595
0.326233 0.679352 0.985596
0.188751 0.711548 0.695770
0.364258 0.984009 0.575592
0.194275 0.703003 0.718750
0.194275 0.703003 0.718750
0.194275 0.703003 0.718750
0.194275 0.703003 0.718750
0.196075 0.750641 0.670410
0.303162 0.927338 0.590363
0.590790 1.000000 0.469910
0.715118 0.987823 0.335083
0.617065 1.000000 0.430084
0.617065 1.000000 0.430084
0.617065 1.000000 0.430084
0.617065 1.000000 0.430084
0.648468 1.000000 0.393616
0.726532 0.971588 0.326569
0.836823 0.815247 0.295624
0.982452 0.681152 0.321136
0.099518 0.062500 0.129150
0.099518 0.062500 0.129150
0.099518 0.062500 0.129150
0.099518 0.062500 0.129150
0.132813 0.098480 0.204437
0.283417 0.295410 0.596863
0.358856 0.513306 0.922668
0.317657 0.685822 0.972260
0.099518 0.062500 0.129150
0.099518 0.062500 0.129150
0.099518 0.062500 0.129150
0.099518 0.062500 0.129150
0.132813 0.098480 0.204437
0.283417 0.295410 0.596863
0.358856 0.513306 0.922668
0.317657 0.685822 0.972260
0.099518 0.062500 0.129150
0.099518 0.062500 0.129150
0.099518 0.062500 0.129150
0.099518 0.062500 0.129150
0.132813 0.098480 0.204437
0.283417 0.295410 0.596863
0.358856 0.513306 0.922668
0.317657 0.685822 0.972260
0.099518 0.062500 0.129150
0.099518 0.062500 0.129150
0.099518 0.062500 0.129150
0.099518 0.062500 0.129150
0.132813 0.098480 0.204437
0.283417 0.295410 0.596863
0.358856 0.513306 0.922668
0.317657 0.685822 0.972260
0.187836 0.163269 0.338165
0.187836 0.163269 0.338165
0.187836 0.163269 0.338165
0.187836 0.163269 0.338165
0.244415 0.238892 0.485046
0.348236 0.436066 0.832520
0.354584 0.610596 0.999084
0.233582 0.703308 0.813873
0.359161 0.517181 0.926453
0.359161 0.517181 0.926453
0.359161 0.517181 0.926453
0.359161 0.517181 0.926453
0.359375 0.568115 0.972595
0.326233 0.679352 0.985596
0.188751 0.711548 0.695770
0.364258 0.984009 0.575592
0.194275 0.703003 0.718750
0.194275 0.703003 0.718750
0.194275 0.703003 0.718750
0.194275 0.703003 0.718750
0.196075 0.750641 0.670410
0.303162 0.927338 0.590363
0.590790 1.000000 0.469910
0.715118 0.987823 0.335083
0.617065 1.000000 0.430084
0.617065 1.000000 0.430084
0.617065 1.000000 0.430084
0.617065 1.000000 0.430084
0.648468 1.000000 0.393616
0.726532 0.971588 0.326569
0.836823 0.815247 0.295624
0.982452 0.681152 0.321136
0.099518 0.062500 0.129150
0.099518 0.062500 0.129150
0.099518 0.062500 0.129150
0.099518 0.062500 0.129150
0.132813 0.098480 0.204437
0.283417 0.295410 0.596863
0.358856 0.513306 0.922668
0.317657 0.685822 0.972260
0.099518 0.062500 0.129150
0.099518 0.062500 0.129150
0.099518 0.062500 0.129150
0.099518 0.062500 0.129150
0.132813 0.098480 0.204437
0.283417 0.295410 0.596863
0.358856 0.513306 0.922668
0.317657 0.685822 0.972260
0.099518 0.062500 0.129150
0.099518 0.062500 0.129150
0.099518 0.062500 0.129150
0.099518 0.062500 0.129150
0.132813 0.098480 0.204437
0.283417 0.295410 0.596863
0.358856 0.513306 0.922668
0.317657 0.685822 0.972260
0.099518 0.062500 0.129150
0.099518 0.062500 0.129150
0.099518 0.062500 0.129150
0.099518 0.062500 0.129150
0.132813 0.098480 0.204437
0.283417 0.295410 0.596863
0.358856 0.513306 0.922668
0.317657 0.685822 0.972260
0.187836 0.163269 0.338165
0.187836 0.163269 0.338165
0.187836 0.163269 0.338165
0.187836 0.163269 0.338165
0.244415 0.238892 0.485046
0.348236 0.436066 0.832520
0.354584 0.610596 0.999084
0.233582 0.703308 0.813873
0.359161 0.517181 0.926453
0.359161 0.517181 0.926453
0.359161 0.517181 0.926453
0.359161 0.517181 0.926453
0.359375 0.568115 0.972595
0.326233 0.679352 0.985596
0.188751 0.711548 0.695770
0.364258 0.984009 0.575592
0.194275 0.703003 0.718750
0.194275 0.703003 0.718750
0.194275 0.703003 0.718750
0.194275 0.703003 0.718750
0.196075 0.750641 0.670410
0.303162 0.927338 0.590363
0.590790 1.000000 0.469910
0.715118 0.987823 0.335083
0.617065 1.000000 0.430084
0.617065 1.000000 0.430084
0.617065 1.000000 0.430084
0.617065 1.000000 0.430084
0.648468 1.000000 0.393616
0.726532 0.971588 0.326569
0.836823 0.815247 0.295624
0.982452 0.681152 0.321136
0.107208 0.070587 0.145966
0.107208 0.070587 0.145966
0.107208 0.070587 0.145966
0.107208 0.070587 0.145966
0.152069 0.120300 0.250183
0.299866 0.321716 0.648010
0.359802 0.531891 0.941040
0.304291 0.692200 0.949615
0.107208 0.070587 0.145966
0.107208 0.070587 0.145966
0.107208 0.070587 0.145966
0.107208 0.070587 0.145966
0.152069 0.120300 0.250183
0.299866 0.321716 0.648010
0.359802 0.531891 0.941040
0.304291 0.692200 0.949615
0.107208 0.070587 0.145966
0.107208 0.070587 0.145966
0.107208 0.070587 0.145966
0.107208 0.070587 0.145966
0.152069 0.120300 0.250183
0.299866 0.321716 0.648010
0.359802 0.531891 0.941040
0.304291 0.692200 0.949615
0.107208 0.070587 0.145966
0.107208 0.070587 0.145966
0.107208 0.070587 0.145966
0.107208 0.070587 0.145966
0.152069 0.120300 0.250183
0.299866 0.321716 0.648010
0.359802 0.531891 0.941040
0.304291 0.692200 0.949615
0.211060 0.193359 0.397858
0.211060 0.193359 0.397858
0.211060 0.193359 0.397858
0.211060 0.193359 0.397858
0.263367 0.265198 0.536621
0.351440 0.452667 0.853424
0.351166 0.626770 1.000000
0.217926 0.703400 0.778198
0.359894 0.535492 0.944550
0.359894 0.535492 0.944550
0.359894 0.535492 0.944550
0.359894 0.535492 0.944550
0.357910 0.585938 0.985260
0.315308 0.687408 0.968018
0.192749 0.732697 0.682404
0.399658 1.000000 0.568298
0.189301 0.713806 0.694672
0.189301 0.713806 0.694672
0.189301 0.713806 0.694672
0.189301 0.713806 0.694672
0.199554 0.770111 0.656647
0.333282 0.956268 0.582336
0.602570 1.000000 0.451172
0.724701 0.974396 0.328064
0.628418 1.000000 0.415405
0.628418 1.000000 0.415405
0.628418 1.000000 0.415405
0.628418 1.000000 0.415405
0.659637 1.000000 0.382233
0.736237 0.956818 0.319794
0.862274 0.810486 0.303986
0.978516 0.660645 0.314148
0.152710 0.120972 0.251648
0.152710 0.120972 0.251648
0.152710 0.120972 0.251648
0.152710 0.120972 0.251648
0.213989 0.197296 0.405396
0.337402 0.399445 0.782349
0.358185 0.583038 0.983307
0.260620 0.701385 0.869659
0.152710 0.120972 0.251648
0.152710 0.120972 0.251648
0.152710 0.120972 0.251648
0.152710 0.120972 0.251648
0.213989 0.197296 0.405396
0.337402 0.399445 0.782349
0.358185 0.583038 0.983307
0.260620 0.701385 0.869659
0.152710 0.120972 0.251648
0.152710 0.120972 0.251648
0.152710 0.120972 0.251648
0.152710 0.120972 0.251648
0.213989 0.197296 0.405396
0.337402 0.399445 0.782349
0.358185 0.583038 0.983307
0.260620 0.701385 0.869659
0.152710 0.120972 0.251648
0.152710 0.120972 0.251648
0.152710 0.120972 0.251648
0.152710 0.120972 0.251648
0.213989 0.197296 0.405396
0.337402 0.399445 0.782349
0.358185 0.583038 0.983307
0.260620 0.701385 0.869659
0.263947 0.266174 0.538269
0.263947 0.266174 0.538269
0.263947 0.266174 0.538269
0.263947 0.266174 0.538269
0.309174 0.337952 0.678497
0.358124 0.502441 0.910980
0.335754 0.664307 0.996490
0.189758 0.716644 0.693054
0.357910 0.586456 0.985596
0.357910 0.586456 0.985596
0.357910 0.586456 0.985596
0.357910 0.586456 0.985596
0.349213 0.631989 1.000000
0.273743 0.699951 0.895081
0.202637 0.787476 0.643616
0.507385 1.000000 0.550720
0.199738 0.770874 0.656097
0.199738 0.770874 0.656097
0.199738 0.770874 0.656097
0.199738 0.770874 0.656097
0.219482 0.825897 0.622864
0.431946 1.000000 0.562531
0.634460 1.000000 0.408203
0.750916 0.932922 0.309631
0.659912 1.000000 0.381958
0.659912 1.000000 0.381958
0.659912 1.000000 0.381958
0.659912 1.000000 0.381958
0.688843 1.000000 0.355438
0.763428 0.914886 0.305603
0.927124 0.791443 0.324921
0.966156 0.602661 0.292358
0.229828 0.219147 0.446777
0.229828 0.219147 0.446777
0.229828 0.219147 0.446777
0.229828 0.219147 0.446777
0.279419 0.289368 0.584961
0.354156 0.469360 0.873718
0.346100 0.639984 1.000000
0.203674 0.703186 0.743408
0.229828 0.219147 0.446777
0.229828 0.219147 0.446777
0.229828 0.219147 0.446777
0.229828 0.219147 0.446777
0.279419 0.289368 0.584961
0.354156 0.469360 0.873718
0.346100 0.639984 1.000000
0.203674 0.703186 0.743408
0.229828 0.219147 0.446777
0.229828 0.219147 0.446777
0.229828 0.219147 0.446777
0.229828 0.219147 0.446777
0.279419 0.289368 0.584961
0.354156 0.469360 0.873718
0.346100 0.639984 1.000000
0.203674 0.703186 0.743408
0.229828 0.219147 0.446777
0.229828 0.219147 0.446777
0.229828 0.219147 0.446777
0.229828 0.219147 0.446777
0.279419 0.289368 0.584961
0.354156 0.469360 0.873718
0.346100 0.639984 1.000000
0.203674 0.703186 0.743408
0.321472 0.361084 0.719940
0.321472 0.361084 0.719940
0.321472 0.361084 0.719940
0.321472 0.361084 0.719940
0.347473 0.432922 0.828583
0.359375 0.568634 0.973053
0.298462 0.694489 0.939941
0.202789 0.788116 0.643066
0.344727 0.643463 1.000000
0.344727 0.643463 1.000000
0.344727 0.643463 1.000000
0.344727 0.643463 1.000000
0.328339 0.677490 0.988953
0.215240 0.703308 0.772156
0.250397 0.868988 0.607758
0.584503 1.000000 0.480164
0.233276 0.846497 0.615356
0.233276 0.846497 0.615356
0.233276 0.846497 0.615356
0.233276 0.846497 0.615356
0.296570 0.920593 0.591980
0.556488 1.000000 0.525818
0.674255 1.000000 0.368042
0.788513 0.874023 0.297333
0.697449 1.000000 0.348511
0.697449 1.000000 0.348511
0.697449 1.000000 0.348511
0.697449 1.000000 0.348511
0.724701 0.974396 0.328064
0.800903 0.850159 0.292206
0.986267 0.752808 0.337341
0.948303 0.528931 0.262939
0.302856 0.327057 0.658112
0.302856 0.327057 0.658112
0.302856 0.327057 0.658112
0.302856 0.327057 0.658112
0.339111 0.404297 0.789307
0.359955 0.545929 0.954376
0.315308 0.687408 0.968018
0.198486 0.764313 0.660645
0.302856 0.327057 0.658112
0.302856 0.327057 0.658112
0.302856 0.327057 0.658112
0.302856 0.327057 0.658112
0.339111 0.404297 0.789307
0.359955 0.545929 0.954376
0.315308 0.687408 0.968018
0.198486 0.764313 0.660645
0.302856 0.327057 0.658112
0.302856 0.327057 0.658112
0.302856 0.327057 0.658112
0.302856 0.327057 0.658112
0.339111 0.404297 0.789307
0.359955 0.545929 0.954376
0.315308 0.687408 0.968018
0.198486 0.764313 0.660645
0.302856 0.327057 0.658112
0.302856 0.327057 0.658112
0.302856 0.327057 0.658112
0.302856 0.327057 0.658112
0.339111 0.404297 0.789307
0.359955 0.545929 0.954376
0.315308 0.687408 0.968018
0.198486 0.764313 0.660645
0.351929 0.456024 0.857422
0.351929 0.456024 0.857422
0.351929 0.456024 0.857422
0.351929 0.456024 0.857422
0.358246 0.505402 0.913971
0.347046 0.637451 1.000000
0.230927 0.703186 0.807983
0.264648 0.885986 0.602295
0.312775 0.688568 0.963928
0.312775 0.688568 0.963928
0.312775 0.688568 0.963928
0.312775 0.688568 0.963928
0.271118 0.700317 0.890137
0.195618 0.748566 0.671997
0.369904 0.988739 0.574158
0.633270 1.000000 0.409546
0.339752 0.962189 0.580658
0.339752 0.962189 0.580658
0.339752 0.962189 0.580658
0.339752 0.962189 0.580658
0.438385 1.000000 0.561523
0.611145 1.000000 0.438019
0.716644 0.985596 0.333771
0.851227 0.812500 0.300323
0.738159 0.954041 0.318512
0.738159 0.954041 0.318512
0.738159 0.954041 0.318512
0.738159 0.954041 0.318512
0.765472 0.912231 0.305023
0.880951 0.805817 0.310211
0.981873 0.677948 0.319916
0.923645 0.452209 0.232941
