Assets/_Volumes/LUT/comicbook.cube
#Created by: Adobe Photoshop Export Color Lookup Plugin
TITLE "comicbook LUT.psd"
#LUT size
LUT_3D_SIZE 32
#data domain
DOMAIN_MIN 0.0 0.0 0.0
DOMAIN_MAX 1.0 1.0 1.0
#LUT data points
0.099518 0.062500 0.129150
0.099518 0.062500 0.129150
0.099518 0.062500 0.129150
0.099518 0.062500 0.129150
0.099518 0.062500 0.129150
0.099518 0.062500 0.129150
0.099518 0.062500 0.129150
0.099518 0.062500 0.129150
0.099518 0.062500 0.129150
0.099518 0.062500 0.129150
0.099518 0.062500 0.129150
0.099518 0.062500 0.129150
0.099518 0.062500 0.129150
0.099518 0.062500 0.129150
0.100555 0.063507 0.131287
0.111542 0.075165 0.155548
0.132813 0.098480 0.204437
0.165558 0.135986 0.282684
0.206573 0.187561 0.386292
0.244995 0.239624 0.486603
0.283417 0.295410 0.596863
0.319122 0.356354 0.711700
0.345428 0.424530 0.817719
0.353638 0.465759 0.869568
0.358856 0.513306 0.922668
0.359589 0.563080 0.968475
0.354156 0.612183 0.999664
0.340210 0.653931 0.999084
0.317657 0.685822 0.972260
0.272797 0.700226 0.893127
0.221436 0.703308 0.786469
0.190430 0.720703 0.689941
0.099518 0.062500 0.129150
0.099518 0.062500 0.129150
0.099518 0.062500 0.129150
0.099518 0.062500 0.129150
0.099518 0.062500 0.129150
0.099518 0.062500 0.129150
0.099518 0.062500 0.129150
0.099518 0.062500 0.129150
0.099518 0.062500 0.129150
0.099518 0.062500 0.129150
0.099518 0.062500 0.129150
0.099518 0.062500 0.129150
0.099518 0.062500 0.129150
0.099518 0.062500 0.129150
0.100555 0.063507 0.131287
0.111542 0.075165 0.155548
0.132813 0.098480 0.204437
0.165558 0.135986 0.282684
0.206573 0.187561 0.386292
0.244995 0.239624 0.486603
0.283417 0.295410 0.596863
0.319122 0.356354 0.711700
0.345428 0.424530 0.817719
0.353638 0.465759 0.869568
0.358856 0.513306 0.922668
0.359589 0.563080 0.968475
0.354156 0.612183 0.999664
0.340210 0.653931 0.999084
0.317657 0.685822 0.972260
0.272797 0.700226 0.893127
0.221436 0.703308 0.786469
0.190430 0.720703 0.689941
0.099518 0.062500 0.129150
0.099518 0.062500 0.129150
0.099518 0.062500 0.129150
0.099518 0.062500 0.129150
0.099518 0.062500 0.129150
0.099518 0.062500 0.129150
0.099518 0.062500 0.129150
0.099518 0.062500 0.129150
0.099518 0.062500 0.129150
0.099518 0.062500 0.129150
0.099518 0.062500 0.129150
0.099518 0.062500 0.129150
0.099518 0.062500 0.129150
0.099518 0.062500 0.129150
0.100555 0.063507 0.131287
0.111542 0.075165 0.155548
0.132813 0.098480 0.204437
0.165558 0.135986 0.282684
0.206573 0.187561 0.386292
0.244995 0.239624 0.486603
0.283417 0.295410 0.596863
0.319122 0.356354 0.711700
0.345428 0.424530 0.817719
0.353638 0.465759 0.869568
0.358856 0.513306 0.922668
0.359589 0.563080 0.968475
0.354156 0.612183 0.999664
0.340210 0.653931 0.999084
0.317657 0.685822 0.972260
0.272797 0.700226 0.893127
0.221436 0.703308 0.786469
0.190430 0.720703 0.689941
0.099518 0.062500 0.129150
0.099518 0.062500 0.129150
0.099518 0.062500 0.129150
0.099518 0.062500 0.129150
0.099518 0.062500 0.129150
0.099518 0.062500 0.129150
0.099518 0.062500 0.129150
0.099518 0.062500 0.129150
0.099518 0.062500 0.129150
0.099518 0.062500 0.129150
0.099518 0.062500 0.129150
0.099518 0.062500 0.129150
0.099518 0.062500 0.129150
0.099518 0.062500 0.129150
0.100555 0.063507 0.131287
0.111542 0.075165 0.155548
0.132813 0.098480 0.204437
0.165558 0.135986 0.282684
0.206573 0.187561 0.386292
0.244995 0.239624 0.486603
0.283417 0.295410 0.596863
0.319122 0.356354 0.711700
0.345428 0.424530 0.817719
0.353638 0.465759 0.869568
0.358856 0.513306 0.922668
0.359589 0.563080 0.968475
0.354156 0.612183 0.999664
0.340210 0.653931 0.999084
0.317657 0.685822 0.972260
0.272797 0.700226 0.893127
0.221436 0.703308 0.786469
0.190430 0.720703 0.689941
0.099518 0.062500 0.129150
0.099518 0.062500 0.129150
0.099518 0.062500 0.129150
0.099518 0.062500 0.129150
0.099518 0.062500 0.129150
0.099518 0.062500 0.129150
0.099518 0.062500 0.129150
0.099518 0.062500 0.129150
0.099518 0.062500 0.129150
0.099518 0.062500 0.129150
0.099518 0.062500 0.129150
0.099518 0.062500 0.129150
0.099518 0.062500 0.129150
0.099518 0.062500 0.129150
0.100555 0.063507 0.131287
0.111542 0.075165 0.155548
0.132813 0.098480 0.204437
0.165558 0.135986 0.282684
0.206573 0.187561 0.386292
0.244995 0.239624 0.486603
0.283417 0.295410 0.596863
0.319122 0.356354 0.711700
0.345428 0.424530 0.817719
0.353638 0.465759 0.869568
0.358856 0.513306 0.922668
0.359589 0.563080 0.968475
0.354156 0.612183 0.999664
0.340210 0.653931 0.999084
0.317657 0.685822 0.972260
0.272797 0.700226 0.893127
0.221436 0.703308 0.786469
0.190430 0.720703 0.689941
0.099518 0.062500 0.129150
0.099518 0.062500 0.129150
0.099518 0.062500 0.129150
0.099518 0.062500 0.129150
0.099518 0.062500 0.129150
0.099518 0.062500 0.129150
0.099518 0.062500 0.129150
0.099518 0.062500 0.129150
0.099518 0.062500 0.129150
0.099518 0.062500 0.129150
0.099518 0.062500 0.129150
0.099518 0.062500 0.129150
0.099518 0.062500 0.129150
0.099518 0.062500 0.129150
0.100555 0.063507 0.131287
0.111542 0.075165 0.155548
0.132813 0.098480 0.204437
0.165558 0.135986 0.282684
0.206573 0.187561 0.386292
0.244995 0.239624 0.486603
0.283417 0.295410 0.596863
0.319122 0.356354 0.711700
0.345428 0.424530 0.817719
0.353638 0.465759 0.869568
0.358856 0.513306 0.922668
0.359589 0.563080 0.968475
0.354156 0.612183 0.999664
0.340210 0.653931 0.999084
0.317657 0.685822 0.972260
0.272797 0.700226 0.893127
0.221436 0.703308 0.786469
0.190430 0.720703 0.689941
0.099518 0.062500 0.129150
0.099518 0.062500 0.129150
0.099518 0.062500 0.129150
0.099518 0.062500 0.129150
0.099518 0.062500 0.129150
0.099518 0.062500 0.129150
0.099518 0.062500 0.129150
0.099518 0.062500 0.129150
0.099518 0.062500 0.129150
0.099518 0.062500 0.129150
0.099518 0.062500 0.129150
0.099518 0.062500 0.129150
0.099518 0.062500 0.129150
0.099518 0.062500 0.129150
0.100555 0.063507 0.131287
0.111542 0.075165 0.155548
0.132813 0.098480 0.204437
0.165558 0.135986 0.282684
0.206573 0.187561 0.386292
0.244995 0.239624 0.486603
0.283417 0.295410 0.596863
0.319122 0.356354 0.711700
0.345428 0.424530 0.817719
0.353638 0.465759 0.869568
0.358856 0.513306 0.922668
0.359589 0.563080 0.968475
0.354156 0.612183 0.999664
0.340210 0.653931 0.999084
0.317657 0.685822 0.972260
0.272797 0.700226 0.893127
0.221436 0.703308 0.786469
0.190430 0.720703 0.689941
0.099518 0.062500 0.129150
0.099518 0.062500 0.129150
0.099518 0.062500 0.129150
0.099518 0.062500 0.129150
0.099518 0.062500 0.129150
0.099518 0.062500 0.129150
0.099518 0.062500 0.129150
0.099518 0.062500 0.129150
0.099518 0.062500 0.129150
0.099518 0.062500 0.129150
0.099518 0.062500 0.129150
0.099518 0.062500 0.129150
0.099518 0.062500 0.129150
0.099518 0.062500 0.129150
0.100555 0.063507 0.131287
0.111542 0.075165 0.155548
0.132813 0.098480 0.204437
0.165558 0.135986 0.282684
0.206573 0.187561 0.386292
0.244995 0.239624 0.486603
0.283417 0.295410 0.596863
0.319122 0.356354 0.711700
0.345428 0.424530 0.817719
0.353638 0.465759 0.869568
0.358856 0.513306 0.922668
0.359589 0.563080 0.968475
0.354156 0.612183 0.999664
0.340210 0.653931 0.999084
0.317657 0.685822 0.972260
0.272797 0.700226 0.893127
0.221436 0.703308 0.786469
0.190430 0.720703 0.689941
0.099518 0.062500 0.129150
0.099518 0.062500 0.129150
0.099518 0.062500 0.129150
0.099518 0.062500 0.129150
0.099518 0.062500 0.129150
0.099518 0.062500 0.129150
0.099518 0.062500 0.129150
0.099518 0.062500 0.129150
0.099518 0.062500 0.129150
0.099518 0.062500 0.129150
0.099518 0.062500 0.129150
0.099518 0.062500 0.129150
0.099518 0.062500 0.129150
0.099518 0.062500 0.129150
0.100555 0.063507 0.131287
0.111542 0.075165 0.155548
0.132813 0.098480 0.204437
0.165558 0.135986 0.282684
0.206573 0.187561 0.386292
0.244995 0.239624 0.486603
0.283417 0.295410 0.596863
0.319122 0.356354 0.711700
0.345428 0.424530 0.817719
0.353638 0.465759 0.869568
0.358856 0.513306 0.922668
0.359589 0.563080 0.968475
0.354156 0.612183 0.999664
0.340210 0.653931 0.999084
0.317657 0.685822 0.972260
0.272797 0.700226 0.893127
0.221436 0.703308 0.786469
0.190430 0.720703 0.689941
0.099518 0.062500 0.129150
0.099518 0.062500 0.129150
0.099518 0.062500 0.129150
0.099518 0.062500 0.129150
0.099518 0.062500 0.129150
0.099518 0.062500 0.129150
0.099518 0.062500 0.129150
0.099518 0.062500 0.129150
0.099518 0.062500 0.129150
0.099518 0.062500 0.129150
0.099518 0.062500 0.129150
0.099518 0.062500 0.129150
0.099518 0.062500 0.129150
0.099518 0.062500 0.129150
0.100555 0.063507 0.131287
0.111542 0.075165 0.155548
0.132813 0.098480 0.204437
0.165558 0.135986 0.282684
0.206573 0.187561 0.386292
0.244995 0.239624 0.486603
0.283417 0.295410 0.596863
0.319122 0.356354 0.711700
0.345428 0.424530 0.817719
0.353638 0.465759 0.869568
0.358856 0.513306 0.922668
0.359589 0.563080 0.968475
0.354156 0.612183 0.999664
0.340210 0.653931 0.999084
0.317657 0.685822 0.972260
0.272797 0.700226 0.893127
0.221436 0.703308 0.786469
0.190430 0.720703 0.689941
0.099518 0.062500 0.129150
0.099518 0.062500 0.129150
0.099518 0.062500 0.129150
0.099518 0.062500 0.129150
0.099518 0.062500 0.129150
0.099518 0.062500 0.129150
0.099518 0.062500 0.129150
0.099518 0.062500 0.129150
0.099518 0.062500 0.129150
0.099518 0.062500 0.129150
0.099518 0.062500 0.129150
0.099518 0.062500 0.129150
0.099518 0.062500 0.129150
0.099518 0.062500 0.129150
0.100555 0.063507 0.131287
0.111542 0.075165 0.155548
0.132813 0.098480 0.204437
0.165558 0.135986 0.282684
0.206573 0.187561 0.386292
0.244995 0.239624 0.486603
0.283417 0.295410 0.596863
0.319122 0.356354 0.711700
0.345428 0.424530 0.817719
0.353638 0.465759 0.869568
0.358856 0.513306 0.922668
0.359589 0.563080 0.968475
0.354156 0.612183 0.999664
0.340210 0.653931 0.999084
0.317657 0.685822 0.972260
0.272797 0.700226 0.893127
0.221436 0.703308 0.786469
0.190430 0.720703 0.689941
0.099518 0.062500 0.129150
0.099518 0.062500 0.129150
0.099518 0.062500 0.129150
0.099518 0.062500 0.129150
0.099518 0.062500 0.129150
0.099518 0.062500 0.129150
0.099518 0.062500 0.129150
0.099518 0.062500 0.129150
0.099518 0.062500 0.129150
0.099518 0.062500 0.129150
0.099518 0.062500 0.129150
0.099518 0.062500 0.129150
0.099518 0.062500 0.129150
0.099518 0.062500 0.129150
0.100555 0.063507 0.131287
0.111542 0.075165 0.155548
0.132813 0.098480 0.204437
0.165558 0.135986 0.282684
0.206573 0.187561 0.386292
0.244995 0.239624 0.486603
0.283417 0.295410 0.596863
0.319122 0.356354 0.711700
0.345428 0.424530 0.817719
0.353638 0.465759 0.869568
0.358856 0.513306 0.922668
0.359589 0.563080 0.968475
0.354156 0.612183 0.999664
0.340210 0.653931 0.999084
0.317657 0.685822 0.972260
0.272797 0.700226 0.893127
0.221436 0.703308 0.786469
0.190430 0.720703 0.689941
0.099518 0.062500 0.129150
0.099518 0.062500 0.129150
0.099518 0.062500 0.129150
0.099518 0.062500 0.129150
0.099518 0.062500 0.129150
0.099518 0.062500 0.129150
0.099518 0.062500 0.129150
0.099518 0.062500 0.129150
0.099518 0.062500 0.129150
0.099518 0.062500 0.129150
0.099518 0.062500 0.129150
0.099518 0.062500 0.129150
0.099518 0.062500 0.129150
0.099518 0.062500 0.129150
0.100555 0.063507 0.131287
0.111542 0.075165 0.155548
0.132813 0.098480 0.204437
0.165558 0.135986 0.282684
0.206573 0.187561 0.386292
0.244995 0.239624 0.486603
0.283417 0.295410 0.596863
0.319122 0.356354 0.711700
0.345428 0.424530 0.817719
0.353638 0.465759 0.869568
0.358856 0.513306 0.922668
0.359589 0.563080 0.968475
0.354156 0.612183 0.999664
0.340210 0.653931 0.999084
0.317657 0.685822 0.972260
0.272797 0.700226 0.893127
0.221436 0.703308 0.786469
0.190430 0.720703 0.689941
0.099518 0.062500 0.129150
0.099518 0.062500 0.129150
0.099518 0.062500 0.129150
0.099518 0.062500 0.129150
0.099518 0.062500 0.129150
0.099518 0.062500 0.129150
0.099518 0.062500 0.129150
0.099518 0.062500 0.129150
0.099518 0.062500 0.129150
0.099518 0.062500 0.129150
0.099518 0.062500 0.129150
0.099518 0.062500 0.129150
0.099518 0.062500 0.129150
0.099518 0.062500 0.129150
0.100555 0.063507 0.131287
0.111542 0.075165 0.155548
0.132813 0.098480 0.204437
0.165558 0.135986 0.282684
0.206573 0.187561 0.386292
0.244995 0.239624 0.486603
0.283417 0.295410 0.596863
0.319122 0.356354 0.711700
0.345428 0.424530 0.817719
0.353638 0.465759 0.869568
0.358856 0.513306 0.922668
0.359589 0.563080 0.968475
0.354156 0.612183 0.999664
0.340210 0.653931 0.999084
0.317657 0.685822 0.972260
0.272797 0.700226 0.893127
0.221436 0.703308 0.786469
0.190430 0.720703 0.689941
0.103149 0.066315 0.136963
0.103149 0.066315 0.136963
0.103149 0.066315 0.136963
0.103149 0.066315 0.136963
0.103149 0.066315 0.136963
0.103149 0.066315 0.136963
0.103149 0.066315 0.136963
0.103149 0.066315 0.136963
0.103149 0.066315 0.136963
0.103149 0.066315 0.136963
0.103149 0.066315 0.136963
0.103149 0.066315 0.136963
0.103149 0.066315 0.136963
0.103149 0.066315 0.136963
0.106110 0.069458 0.143677
0.119324 0.083496 0.173096
0.143402 0.110229 0.229309
0.177948 0.151062 0.313538
0.219055 0.204285 0.418579
0.256836 0.255951 0.518036
0.292847 0.310272 0.625732
0.327057 0.373322 0.740753
0.347687 0.433380 0.829193
0.355316 0.476563 0.881805
0.359528 0.523743 0.933258
0.358948 0.573975 0.977081
0.352081 0.621918 1.000000
0.337067 0.661774 0.997070
0.310272 0.689667 0.959717
0.262817 0.701172 0.873901
0.212402 0.703308 0.765076
0.192749 0.732697 0.682404
0.131104 0.096497 0.200378
0.131104 0.096497 0.200378
0.131104 0.096497 0.200378
0.131104 0.096497 0.200378
0.131104 0.096497 0.200378
0.131104 0.096497 0.200378
0.131104 0.096497 0.200378
0.131104 0.096497 0.200378
0.131104 0.096497 0.200378
0.131104 0.096497 0.200378
0.131104 0.096497 0.200378
0.131104 0.096497 0.200378
0.131104 0.096497 0.200378
0.131104 0.096497 0.200378
0.136566 0.102509 0.212952
0.157654 0.126617 0.263306
0.188446 0.164246 0.340088
0.223877 0.210907 0.431152
0.258911 0.258728 0.523468
0.291687 0.308502 0.622467
0.324493 0.367676 0.730988
0.346436 0.428528 0.822784
0.354034 0.468872 0.873077
0.358856 0.513947 0.923187
0.359589 0.562531 0.967926
0.354675 0.609833 0.998596
0.341675 0.650879 0.999786
0.321198 0.683807 0.977631
0.279297 0.699188 0.905396
0.228851 0.703186 0.803162
0.188232 0.708923 0.697723
0.200378 0.774567 0.653381
0.187836 0.163269 0.338165
0.187836 0.163269 0.338165
0.187836 0.163269 0.338165
0.187836 0.163269 0.338165
0.187836 0.163269 0.338165
0.187836 0.163269 0.338165
0.187836 0.163269 0.338165
0.187836 0.163269 0.338165
0.187836 0.163269 0.338165
0.187836 0.163269 0.338165
0.187836 0.163269 0.338165
0.187836 0.163269 0.338165
0.187836 0.163269 0.338165
0.187836 0.163269 0.338165
0.194641 0.171844 0.355499
0.218353 0.203339 0.416718
0.244415 0.238892 0.485046
0.273895 0.280975 0.568115
0.304047 0.328888 0.661499
0.332001 0.384399 0.758972
0.348236 0.436066 0.832520
0.355164 0.475189 0.880646
0.359283 0.518188 0.927582
0.359528 0.565063 0.970154
0.354584 0.610596 0.999084
0.342010 0.649994 1.000000
0.322815 0.682404 0.980652
0.283081 0.698212 0.912323
0.233582 0.703308 0.813873
0.189392 0.703094 0.704529
0.198700 0.765564 0.659912
0.221954 0.829803 0.621246
0.253601 0.251312 0.509308
0.253601 0.251312 0.509308
0.253601 0.251312 0.509308
0.253601 0.251312 0.509308
0.253601 0.251312 0.509308
0.253601 0.251312 0.509308
0.253601 0.251312 0.509308
0.253601 0.251312 0.509308
0.253601 0.251312 0.509308
0.253601 0.251312 0.509308
0.253601 0.251312 0.509308
0.253601 0.251312 0.509308
0.253601 0.251312 0.509308
0.253601 0.251312 0.509308
0.259644 0.259735 0.525330
0.277283 0.285950 0.578094
0.300323 0.322540 0.649567
0.324493 0.367676 0.730988
0.343994 0.419678 0.811157
0.351563 0.453766 0.854950
0.357117 0.491943 0.899536
0.359802 0.533752 0.942566
0.358643 0.577637 0.979492
0.352600 0.620422 1.000000
0.339111 0.657104 0.998260
0.317993 0.685608 0.972931
0.277618 0.699463 0.902283
0.229828 0.703308 0.805511
0.188446 0.704926 0.700989
0.198914 0.766968 0.659058
0.221954 0.829803 0.621246
0.291870 0.915924 0.593475
0.313171 0.345215 0.691833
0.313171 0.345215 0.691833
0.313171 0.345215 0.691833
0.313171 0.345215 0.691833
0.313171 0.345215 0.691833
0.313171 0.345215 0.691833
0.313171 0.345215 0.691833
0.313171 0.345215 0.691833
0.313171 0.345215 0.691833
0.313171 0.345215 0.691833
0.313171 0.345215 0.691833
0.313171 0.345215 0.691833
0.313171 0.345215 0.691833
0.313171 0.345215 0.691833
0.317566 0.353699 0.706879
0.331604 0.383667 0.757782
0.345062 0.423431 0.816132
0.351105 0.450531 0.850494
0.355988 0.482452 0.888794
0.359283 0.518188 0.927582
0.359741 0.558075 0.964630
0.356354 0.598816 0.992889
0.347473 0.636475 1.000000
0.333496 0.669464 0.995361
0.306580 0.691437 0.953705
0.264587 0.701172 0.877319
0.218750 0.703308 0.780609
0.189880 0.717316 0.692200
0.200745 0.777130 0.651428
0.229584 0.841522 0.617157
0.302155 0.926361 0.590546
0.409546 1.000000 0.566467
0.349426 0.442657 0.840729
0.349426 0.442657 0.840729
0.349426 0.442657 0.840729
0.349426 0.442657 0.840729
0.349426 0.442657 0.840729
0.349426 0.442657 0.840729
0.349426 0.442657 0.840729
0.349426 0.442657 0.840729
0.349426 0.442657 0.840729
0.349426 0.442657 0.840729
0.349426 0.442657 0.840729
0.349426 0.442657 0.840729
0.349426 0.442657 0.840729
0.349426 0.442657 0.840729
0.350616 0.447571 0.847046
0.353638 0.465179 0.868835
0.356781 0.490143 0.897644
0.359375 0.520203 0.929504
0.359894 0.553986 0.960907
0.357574 0.590271 0.988068
0.351288 0.625732 1.000000
0.339111 0.657104 0.998260
0.321808 0.683105 0.978638
0.287262 0.697449 0.919830
0.244537 0.702911 0.836975
0.202240 0.703308 0.739868
0.193787 0.738983 0.678314
0.204010 0.794617 0.638123
0.246216 0.863647 0.609375
0.326111 0.949524 0.584381
0.435760 1.000000 0.561951
0.551758 1.000000 0.533905
0.359161 0.517181 0.926453
0.359161 0.517181 0.926453
0.359161 0.517181 0.926453
0.359161 0.517181 0.926453
0.359161 0.517181 0.926453
0.359161 0.517181 0.926453
0.359161 0.517181 0.926453
0.359161 0.517181 0.926453
0.359161 0.517181 0.926453
0.359161 0.517181 0.926453
0.359161 0.517181 0.926453
0.359161 0.517181 0.926453
0.359161 0.517181 0.926453
0.359161 0.517181 0.926453
0.359436 0.522644 0.931702
0.359955 0.542419 0.950806
0.359375 0.568115 0.972595
0.356567 0.597107 0.992096
0.351013 0.627319 1.000000
0.340088 0.654419 0.999084
0.326233 0.679352 0.985596
0.298004 0.694580 0.938843
0.259460 0.701477 0.867340
0.218750 0.703308 0.780609
0.188751 0.711548 0.695770
0.198914 0.766968 0.659058
0.216919 0.822052 0.624329
0.274445 0.897003 0.599091
0.364258 0.984009 0.575592
0.477203 1.000000 0.554962
0.567413 1.000000 0.507721
0.608582 1.000000 0.441833
0.356354 0.598816 0.992889
0.356354 0.598816 0.992889
0.356354 0.598816 0.992889
0.356354 0.598816 0.992889
0.356354 0.598816 0.992889
0.356354 0.598816 0.992889
0.356354 0.598816 0.992889
0.356354 0.598816 0.992889
0.356354 0.598816 0.992889
0.356354 0.598816 0.992889
0.356354 0.598816 0.992889
0.356354 0.598816 0.992889
0.356354 0.598816 0.992889
0.356354 0.598816 0.992889
0.355713 0.603851 0.995819
0.352386 0.620972 1.000000
0.345642 0.641174 1.000000
0.336639 0.662720 0.996826
0.322815 0.682404 0.980652
0.297058 0.694763 0.937317
0.262817 0.701172 0.873901
0.225220 0.703400 0.795013
0.191467 0.703186 0.710541
0.196075 0.750641 0.670410
0.204742 0.798981 0.634186
0.246826 0.864380 0.609131
0.319000 0.942566 0.586029
0.418182 1.000000 0.565063
0.533752 1.000000 0.546783
0.586365 1.000000 0.476776
0.623047 1.000000 0.422119
0.659637 1.000000 0.382233
0.334717 0.666840 0.995941
0.334717 0.666840 0.995941
0.334717 0.666840 0.995941
0.334717 0.666840 0.995941
0.334717 0.666840 0.995941
0.334717 0.666840 0.995941
0.334717 0.666840 0.995941
0.334717 0.666840 0.995941
0.334717 0.666840 0.995941
0.334717 0.666840 0.995941
0.334717 0.666840 0.995941
0.334717 0.666840 0.995941
0.334717 0.666840 0.995941
0.334717 0.666840 0.995941
0.333008 0.670502 0.995148
0.324554 0.681000 0.983124
0.308105 0.691071 0.956024
0.283600 0.698120 0.913208
0.253418 0.702179 0.855438
0.220764 0.703400 0.785370
0.190979 0.703094 0.709473
0.195221 0.746399 0.673218
0.203491 0.791534 0.640076
0.234558 0.848389 0.614716
0.294495 0.918854 0.592438
0.381653 0.998596 0.571777
0.487732 1.000000 0.553558
0.567871 1.000000 0.506989
0.605804 1.000000 0.445831
0.641174 1.000000 0.401031
0.675385 1.000000 0.367096
0.707916 0.996613 0.340088
0.274536 0.699951 0.896149
0.274536 0.699951 0.896149
0.274536 0.699951 0.896149
0.274536 0.699951 0.896149
0.274536 0.699951 0.896149
0.274536 0.699951 0.896149
0.274536 0.699951 0.896149
0.274536 0.699951 0.896149
0.274536 0.699951 0.896149
0.274536 0.699951 0.896149
0.274536 0.699951 0.896149
0.274536 0.699951 0.896149
0.274536 0.699951 0.896149
0.274536 0.699951 0.896149
0.269409 0.700623 0.886932
0.252319 0.702179 0.852997
0.229309 0.703186 0.804504
0.204102 0.703186 0.744812
0.189514 0.715363 0.693726
0.197021 0.756561 0.666443
0.204376 0.796783 0.636200
0.235046 0.848999 0.614441
0.290131 0.913849 0.593903
0.367615 0.986664 0.574677
0.464111 1.000000 0.557098
0.556061 1.000000 0.526581
0.595062 1.000000 0.462891
0.628418 1.000000 0.415405
0.661926 1.000000 0.379700
0.694092 1.000000 0.351166
0.725067 0.973938 0.327850
0.755707 0.926147 0.308044
0.194275 0.703003 0.718750
0.194275 0.703003 0.718750
0.194275 0.703003 0.718750
0.194275 0.703003 0.718750
0.194275 0.703003 0.718750
0.194275 0.703003 0.718750
0.194275 0.703003 0.718750
0.194275 0.703003 0.718750
0.194275 0.703003 0.718750
0.194275 0.703003 0.718750
0.194275 0.703003 0.718750
0.194275 0.703003 0.718750
0.194275 0.703003 0.718750
0.194275 0.703003 0.718750
0.190430 0.703094 0.708069
0.190582 0.721527 0.689514
0.196075 0.750641 0.670410
0.201752 0.781952 0.647827
0.214661 0.818237 0.626007
0.249664 0.867981 0.608124
0.303162 0.927338 0.590363
0.375702 0.993469 0.572998
0.465424 1.000000 0.556854
0.552887 1.000000 0.531982
0.590790 1.000000 0.469910
0.621674 1.000000 0.423340
0.654022 1.000000 0.387909
0.684753 1.000000 0.358856
0.715118 0.987823 0.335083
0.743713 0.944885 0.314636
0.776001 0.895508 0.301727
0.809082 0.835114 0.290771
0.204651 0.798584 0.634888
0.204651 0.798584 0.634888
0.204651 0.798584 0.634888
0.204651 0.798584 0.634888
0.204651 0.798584 0.634888
0.204651 0.798584 0.634888
0.204651 0.798584 0.634888
0.204651 0.798584 0.634888
0.204651 0.798584 0.634888
0.204651 0.798584 0.634888
0.204651 0.798584 0.634888
0.204651 0.798584 0.634888
0.204651 0.798584 0.634888
0.204651 0.798584 0.634888
0.207153 0.804596 0.631439
0.221527 0.829193 0.621490
0.246826 0.864380 0.609131
0.285614 0.909302 0.595154
0.339752 0.962189 0.580658
0.409546 1.000000 0.566467
0.491577 1.000000 0.553040
0.559692 1.000000 0.520538
0.593475 1.000000 0.466156
0.621674 1.000000 0.423340
0.652161 1.000000 0.389740
0.681152 1.000000 0.362213
0.709656 0.995148 0.339264
0.737122 0.955475 0.319183
0.767487 0.909515 0.304565
0.798462 0.855103 0.293365
0.850372 0.812592 0.300049
0.925934 0.791931 0.324554
0.317841 0.941681 0.586121
0.317841 0.941681 0.586121
0.317841 0.941681 0.586121
0.317841 0.941681 0.586121
0.317841 0.941681 0.586121
0.317841 0.941681 0.586121
0.317841 0.941681 0.586121
0.317841 0.941681 0.586121
0.317841 0.941681 0.586121
0.317841 0.941681 0.586121
0.317841 0.941681 0.586121
0.317841 0.941681 0.586121
0.317841 0.941681 0.586121
0.317841 0.941681 0.586121
0.326996 0.950470 0.583862
0.360809 0.980988 0.576324
0.410645 1.000000 0.566223
0.473145 1.000000 0.555878
0.545410 1.000000 0.545074
0.576141 1.000000 0.493408
0.602844 1.000000 0.450531
0.629242 1.000000 0.414246
0.656372 1.000000 0.385712
0.682953 1.000000 0.360382
0.709656 0.995148 0.339264
0.735748 0.957886 0.320129
0.763062 0.915497 0.305817
0.793732 0.864532 0.295349
0.832733 0.815979 0.294128
0.907684 0.798462 0.319000
0.967041 0.768677 0.333221
0.989410 0.723114 0.333221
0.525818 1.000000 0.547882
0.525818 1.000000 0.547882
0.525818 1.000000 0.547882
0.525818 1.000000 0.547882
0.525818 1.000000 0.547882
0.525818 1.000000 0.547882
0.525818 1.000000 0.547882
0.525818 1.000000 0.547882
0.525818 1.000000 0.547882
0.525818 1.000000 0.547882
0.525818 1.000000 0.547882
0.525818 1.000000 0.547882
0.525818 1.000000 0.547882
0.525818 1.000000 0.547882
0.537567 1.000000 0.546112
0.558472 1.000000 0.522308
0.579315 1.000000 0.488129
0.599792 1.000000 0.455475
