Assets/_Volumes/LUT/comicbook.cube
#Created by: Adobe Photoshop Export Color Lookup Plugin
TITLE "comicbook LUT.psd"
#LUT size
LUT_3D_SIZE 5
#data domain
#LUT data points
DOMAIN_MIN 0.000000 0.000000 0.000000
DOMAIN_MAX 0.903226 0.903226 0.903226
0.099518 0.062500 0.129150
0.099518 0.062500 0.129150
0.100555 0.063507 0.131287
0.319122 0.356354 0.711700
0.317657 0.685822 0.972260
0.099518 0.062500 0.129150
0.099518 0.062500 0.129150
0.100555 0.063507 0.131287
0.319122 0.356354 0.711700
0.317657 0.685822 0.972260
0.103149 0.066315 0.136963
0.103149 0.066315 0.136963
0.106110 0.069458 0.143677
0.327057 0.373322 0.740753
0.310272 0.689667 0.959717
0.356354 0.598816 0.992889
0.356354 0.598816 0.992889
0.355713 0.603851 0.995819
0.225220 0.703400 0.795013
0.533752 1.000000 0.546783
0.617065 1.000000 0.430084
0.617065 1.000000 0.430084
0.619965 1.000000 0.425873
0.748169 0.937653 0.311462
0.982452 0.681152 0.321136
0.099518 0.062500 0.129150
0.099518 0.062500 0.129150
0.100555 0.063507 0.131287
0.319122 0.356354 0.711700
0.317657 0.685822 0.972260
0.099518 0.062500 0.129150
0.099518 0.062500 0.129150
0.100555 0.063507 0.131287
0.319122 0.356354 0.711700
0.317657 0.685822 0.972260
0.103149 0.066315 0.136963
0.103149 0.066315 0.136963
0.106110 0.069458 0.143677
0.327057 0.373322 0.740753
0.310272 0.689667 0.959717
0.356354 0.598816 0.992889
0.356354 0.598816 0.992889
0.355713 0.603851 0.995819
0.225220 0.703400 0.795013
0.533752 1.000000 0.546783
0.617065 1.000000 0.430084
0.617065 1.000000 0.430084
0.619965 1.000000 0.425873
0.748169 0.937653 0.311462
0.982452 0.681152 0.321136
0.099518 0.062500 0.129150
0.099518 0.062500 0.129150
0.101410 0.064362 0.133087
0.320404 0.359375 0.716644
0.315979 0.686951 0.969604
0.099518 0.062500 0.129150
0.099518 0.062500 0.129150
0.101410 0.064362 0.133087
0.320404 0.359375 0.716644
0.315979 0.686951 0.969604
0.104156 0.067291 0.139160
0.104156 0.067291 0.139160
0.107208 0.070587 0.145966
0.328461 0.376221 0.745392
0.308838 0.690521 0.957367
0.356049 0.600311 0.993866
0.356049 0.600311 0.993866
0.355377 0.605713 0.996490
0.223541 0.703308 0.791351
0.537567 1.000000 0.546112
0.617981 1.000000 0.428375
0.617981 1.000000 0.428375
0.621338 1.000000 0.423798
0.749054 0.936310 0.310944
0.982117 0.678986 0.320251
0.170593 0.142181 0.295258
0.170593 0.142181 0.295258
0.177277 0.150269 0.311676
0.352966 0.461334 0.863861
0.246704 0.702637 0.841675
0.170593 0.142181 0.295258
0.170593 0.142181 0.295258
0.177277 0.150269 0.311676
0.352966 0.461334 0.863861
0.246704 0.702637 0.841675
0.184082 0.158539 0.328674
0.184082 0.158539 0.328674
0.190735 0.167053 0.345947
0.354584 0.471649 0.876465
0.236908 0.703186 0.821014
0.335083 0.666077 0.996155
0.335083 0.666077 0.996155
0.333282 0.669739 0.995270
0.195007 0.745300 0.674133
0.605255 1.000000 0.446869
0.669159 1.000000 0.372894
0.669159 1.000000 0.372894
0.672089 1.000000 0.370239
0.796112 0.859528 0.294189
0.961853 0.585144 0.285492
0.302856 0.327057 0.658112
0.302856 0.327057 0.658112
0.307739 0.335266 0.673309
0.357849 0.587189 0.985931
0.198486 0.764313 0.660645
0.302856 0.327057 0.658112
0.302856 0.327057 0.658112
0.307739 0.335266 0.673309
0.357849 0.587189 0.985931
0.198486 0.764313 0.660645
0.312195 0.343597 0.688568
0.312195 0.343597 0.688568
0.316650 0.351715 0.703491
0.356415 0.597473 0.992340
0.200592 0.775696 0.652313
0.242340 0.702911 0.832428
0.242340 0.702911 0.832428
0.237305 0.703003 0.821960
0.277740 0.901001 0.597839
0.682312 1.000000 0.360870
0.738159 0.954041 0.318512
0.738159 0.954041 0.318512
0.741150 0.949402 0.316528
0.932098 0.788818 0.326019
0.923645 0.452209 0.232941
