Assets/_Volumes/LUT/turbo.cube
#Created by: Adobe Photoshop Export Color Lookup Plugin
TITLE "Turbo"
#LUT size
LUT_3D_SIZE 8
#data domain
#LUT data points
DOMAIN_MIN 0.000000 0.000000 0.000000
DOMAIN_MAX 0.903226 0.903226 0.903226
0.196075 0.086273 0.270599
0.232391 0.180328 0.488373
0.263550 0.286011 0.699982
0.273529 0.400757 0.858795
0.259735 0.491272 0.931824
0.235565 0.590729 0.979431
0.202728 0.683258 0.968994
0.137695 0.774994 0.890320
0.262665 0.282715 0.693726
0.273804 0.397675 0.855957
0.260345 0.488190 0.929749
0.236603 0.587006 0.978485
0.204315 0.680389 0.970459
0.139801 0.772156 0.893524
0.101959 0.855682 0.779938
0.136108 0.919586 0.658264
0.260956 0.485138 0.927612
0.237488 0.583923 0.977661
0.205811 0.677521 0.971863
0.142365 0.768738 0.897339
0.101959 0.853302 0.783722
0.132294 0.917511 0.663361
0.271912 0.964935 0.516815
0.436554 0.994019 0.378235
0.207581 0.674103 0.973450
0.144531 0.765900 0.900482
0.101959 0.850891 0.787506
0.129242 0.915771 0.667572
0.266693 0.963684 0.521576
0.430878 0.993317 0.382751
0.553345 1.000000 0.291290
0.650513 0.990173 0.239349
0.101959 0.847992 0.792053
0.126251 0.914001 0.671722
0.260498 0.962189 0.527252
0.426086 0.992676 0.386566
0.550018 1.000000 0.293457
0.647644 0.990845 0.240570
0.735718 0.959961 0.210907
0.822083 0.908386 0.203918
0.255341 0.960938 0.532013
0.421234 0.992004 0.390442
0.546021 1.000000 0.296082
0.644745 0.991486 0.241821
0.732483 0.961487 0.211761
0.819275 0.910400 0.203918
0.904297 0.837067 0.216736
0.967560 0.752136 0.223541
0.542633 1.000000 0.298340
0.641846 0.992126 0.243103
0.729797 0.962738 0.212463
0.816498 0.912384 0.203918
0.901337 0.840149 0.216003
0.966095 0.754913 0.223541
0.976440 0.662476 0.202484
0.976440 0.558197 0.157867
0.727112 0.963959 0.213196
0.813141 0.914734 0.203918
0.898865 0.842651 0.215424
0.964569 0.757660 0.223541
0.976440 0.665619 0.203674
0.976440 0.561523 0.159363
0.975830 0.459198 0.114502
0.938751 0.361725 0.077728
0.205566 0.110168 0.326813
0.245087 0.223053 0.574982
0.271973 0.326569 0.769989
0.269928 0.432007 0.886536
0.251862 0.527435 0.953918
0.225128 0.625946 0.980347
0.181305 0.716827 0.946777
0.115021 0.807159 0.850616
0.271393 0.322876 0.764221
0.270325 0.429199 0.884155
0.252594 0.524292 0.952179
0.226044 0.622955 0.980347
0.183350 0.713928 0.949036
0.116760 0.804443 0.854187
0.101959 0.881653 0.736328
0.180176 0.938568 0.606506
0.253296 0.521149 0.950409
0.227142 0.619385 0.980347
0.185364 0.711029 0.951233
0.118958 0.801178 0.858429
0.101959 0.879547 0.740051
0.175934 0.937012 0.611115
0.333435 0.977844 0.462799
0.486542 0.999359 0.339142
0.187317 0.708130 0.953369
0.120789 0.798431 0.861938
0.101959 0.877411 0.743774
0.170929 0.935120 0.616608
0.328125 0.976837 0.467346
0.481842 0.998962 0.342773
0.590698 0.999847 0.268738
0.683350 0.980957 0.226715
0.101959 0.875244 0.747498
0.166840 0.933533 0.621185
0.322754 0.975800 0.471924
0.477844 0.998596 0.345886
0.587555 1.000000 0.270508
0.680573 0.981842 0.227692
0.766846 0.943878 0.203918
0.854187 0.883514 0.205505
0.316345 0.974548 0.477478
0.473755 0.998199 0.349060
0.583801 1.000000 0.272644
0.677765 0.982727 0.228699
0.764160 0.945374 0.204010
0.851471 0.885742 0.205017
0.931061 0.806732 0.222839
0.976440 0.719849 0.220612
0.580627 1.000000 0.274506
0.674957 0.983582 0.229706
0.760925 0.947144 0.204773
0.848724 0.887970 0.204529
0.928436 0.809937 0.222290
0.976440 0.722687 0.221283
0.976440 0.625153 0.187561
0.976440 0.519775 0.140411
0.758270 0.948578 0.205383
0.845978 0.890198 0.204071
0.926239 0.812592 0.221832
0.976440 0.725494 0.221924
0.976440 0.628387 0.188934
0.976440 0.523071 0.141907
0.965210 0.423981 0.101074
0.919861 0.326294 0.064667
0.220673 0.148010 0.415955
0.255798 0.258911 0.646942
0.274506 0.372528 0.830902
0.264557 0.465759 0.913574
0.242859 0.563904 0.970947
0.214050 0.659363 0.979065
0.155914 0.751007 0.916107
0.101959 0.837555 0.807892
0.274506 0.368317 0.826141
0.265106 0.462769 0.911316
0.243683 0.560760 0.969727
0.215088 0.656555 0.979889
0.158569 0.747559 0.919556
0.101959 0.835022 0.811646
0.112274 0.904236 0.693451
0.234131 0.955383 0.551971
0.244476 0.557617 0.968445
0.216248 0.653198 0.980347
0.160767 0.744659 0.922363
0.101959 0.832489 0.815399
0.110077 0.902405 0.697327
0.229187 0.954041 0.556732
0.394257 0.988159 0.412201
0.528290 1.000000 0.308167
0.162933 0.741760 0.925110
0.102325 0.829376 0.819855
0.107971 0.900513 0.701141
0.223328 0.952362 0.562408
0.389160 0.987366 0.416351
0.524109 1.000000 0.311127
0.625977 0.995209 0.250397
0.715729 0.968903 0.216400
0.106049 0.898651 0.704895
0.218475 0.950989 0.567169
0.384003 0.986572 0.420563
0.520630 1.000000 0.313629
0.623016 0.995697 0.251801
0.712463 0.970245 0.217346
0.798645 0.924530 0.203918
0.885132 0.856110 0.212128
0.377808 0.985596 0.425659
0.517120 1.000000 0.316132
0.620026 0.996185 0.253265
0.709747 0.971344 0.218140
0.795868 0.926361 0.203918
0.882538 0.858551 0.211517
0.953979 0.775269 0.223541
0.976440 0.685486 0.210663
0.616425 0.996765 0.255066
0.707031 0.972412 0.218964
0.792511 0.928497 0.203918
0.879944 0.860992 0.210907
0.952148 0.778015 0.223541
0.976440 0.688538 0.211700
0.976440 0.586212 0.170532
0.976440 0.482300 0.123993
0.789764 0.930237 0.203918
0.877319 0.863403 0.210297
0.949951 0.781311 0.223541
0.976440 0.691589 0.212646
0.976440 0.590210 0.172333
0.976440 0.485474 0.125336
0.951141 0.388275 0.087646
0.899078 0.291931 0.052246
0.236206 0.191925 0.513062
0.266235 0.296753 0.719879
0.272766 0.408569 0.865936
0.257660 0.501160 0.938324
0.232758 0.600586 0.980347
0.197388 0.692474 0.963745
0.131042 0.783966 0.879791
0.101959 0.865448 0.764038
0.273041 0.405914 0.863586
0.258331 0.498077 0.936310
0.233826 0.596893 0.980347
0.199097 0.689606 0.965454
0.133514 0.780609 0.883789
0.101959 0.863159 0.767822
0.147034 0.925018 0.644379
0.294006 0.969910 0.497009
0.234711 0.593811 0.980133
0.200806 0.686707 0.967102
0.135590 0.777802 0.887054
0.101959 0.860870 0.771606
0.142822 0.923004 0.649628
0.288727 0.968750 0.501709
0.450378 0.995697 0.367340
0.567139 1.000000 0.282593
0.137695 0.774994 0.890320
0.101959 0.858032 0.776154
0.139435 0.921295 0.653961
0.283447 0.967560 0.506409
0.445831 0.995148 0.370880
0.563904 1.000000 0.284607
0.659698 0.987885 0.235565
0.747009 0.954437 0.208069
0.136108 0.919586 0.658264
0.277130 0.966125 0.512085
0.441223 0.994598 0.374542
0.559967 1.000000 0.287079
0.656860 0.988647 0.236725
0.744324 0.955780 0.208740
0.830994 0.901794 0.203918
0.914368 0.826233 0.219147
0.436554 0.994019 0.378235
0.556671 1.000000 0.289185
0.653992 0.989349 0.237885
0.741089 0.957397 0.209534
0.828217 0.903870 0.203918
0.911530 0.829376 0.218445
0.971985 0.743286 0.223541
0.976440 0.649109 0.197357
0.650513 0.990173 0.239349
0.738403 0.958679 0.210205
0.825409 0.905945 0.203918
0.909119 0.831940 0.217896
0.970673 0.746033 0.223541
0.976440 0.652283 0.198608
0.976440 0.547546 0.153015
0.972321 0.446442 0.109558
0.822083 0.908386 0.203918
0.906738 0.834503 0.217316
0.968994 0.749359 0.223541
0.976440 0.655487 0.199860
0.976440 0.551544 0.154816
0.973206 0.449463 0.110687
0.933746 0.351898 0.074066
0.877014 0.259216 0.040802
0.247894 0.232849 0.594391
0.273468 0.338623 0.787933
0.268616 0.441101 0.894135
0.249481 0.537506 0.959167
0.222137 0.635376 0.980347
0.174622 0.726105 0.939209
0.109711 0.815735 0.839050
0.101959 0.890167 0.720917
0.269135 0.437683 0.891296
0.250244 0.534332 0.957581
0.223267 0.631836 0.980347
0.176758 0.723236 0.941650
0.111328 0.813080 0.842682
0.101959 0.888184 0.724548
0.194214 0.943420 0.591644
0.355774 0.981903 0.443970
0.224182 0.628906 0.980347
0.178833 0.720306 0.944000
0.113312 0.809845 0.847015
0.101959 0.886169 0.728210
0.188873 0.941620 0.597229
0.350464 0.980957 0.448395
0.497742 1.000000 0.330536
0.603699 0.998474 0.261627
0.115021 0.807159 0.850616
0.101959 0.884125 0.731903
0.184479 0.940094 0.601898
0.345154 0.980011 0.452881
0.494110 1.000000 0.333344
0.600616 0.998840 0.263275
0.692230 0.977936 0.223694
0.778229 0.937286 0.203918
0.180176 0.938568 0.606506
0.338776 0.978851 0.458282
0.490356 0.999664 0.336212
0.597534 0.999176 0.264954
0.689453 0.978912 0.224609
0.775482 0.938904 0.203918
0.862885 0.876160 0.207214
0.939850 0.795441 0.223541
0.486542 0.999359 0.339142
0.593811 0.999573 0.266998
0.686676 0.979828 0.225555
0.772217 0.940796 0.203918
0.860199 0.878479 0.206635
0.937378 0.798676 0.223541
0.976440 0.710602 0.218262
0.976440 0.610718 0.181366
0.683899 0.980774 0.226501
0.769531 0.942352 0.203918
0.857483 0.880768 0.206116
0.935303 0.801361 0.223541
0.976440 0.713501 0.219055
0.976440 0.614655 0.183075
0.976440 0.509338 0.135742
0.960510 0.411102 0.096222
0.854187 0.883514 0.205505
0.933197 0.804047 0.223267
0.976440 0.716980 0.219940
0.976440 0.617950 0.184479
0.976440 0.512573 0.137207
0.961670 0.414185 0.097382
0.914276 0.316711 0.061157
0.854309 0.228790 0.030670
0.258820 0.269073 0.667206
0.274506 0.386444 0.845306
0.262817 0.475372 0.920685
0.240204 0.573944 0.974579
0.210266 0.668427 0.975861
0.149323 0.759613 0.907227
0.101959 0.845520 0.795837
0.122864 0.911865 0.676697
0.263489 0.471771 0.918060
0.241028 0.570801 0.973511
0.211548 0.665588 0.976959
0.151520 0.756744 0.910217
0.101959 0.843048 0.799622
0.120148 0.910065 0.680756
0.250244 0.959625 0.536774
0.415344 0.991211 0.395172
0.212952 0.662170 0.978149
0.153717 0.753906 0.913177
0.101959 0.840088 0.804138
0.117554 0.908264 0.684784
0.245148 0.958313 0.541504
0.410400 0.990540 0.399139
0.539276 1.000000 0.300629
0.638336 0.992859 0.244659
0.101959 0.837555 0.807892
0.115082 0.906464 0.688751
0.239136 0.956726 0.547241
0.405396 0.989807 0.403168
0.535187 1.000000 0.303406
0.635406 0.993469 0.245972
0.723846 0.965424 0.214081
0.810333 0.916656 0.203918
0.234131 0.955383 0.551971
0.400360 0.989075 0.407257
0.531738 1.000000 0.305786
0.632477 0.994019 0.247314
0.721161 0.966583 0.214844
0.807556 0.918579 0.203918
0.893341 0.848206 0.214081
0.961121 0.763733 0.223541
0.528290 1.000000 0.308167
0.628967 0.994659 0.248962
0.718445 0.967743 0.215607
0.804779 0.920471 0.203918
0.890808 0.850677 0.213470
0.959473 0.766479 0.223541
0.976440 0.675598 0.207306
0.976440 0.572205 0.164215
0.715729 0.968903 0.216400
0.801422 0.922699 0.203918
0.888245 0.853149 0.212860
0.957458 0.769806 0.223541
0.976440 0.678711 0.208374
0.976440 0.576202 0.166046
0.976440 0.472198 0.119751
0.944977 0.374664 0.082581
0.885651 0.855621 0.212250
0.955719 0.772522 0.223541
0.976440 0.681793 0.209442
0.976440 0.579529 0.167542
0.976440 0.475342 0.121063
0.946716 0.378387 0.083954
0.893066 0.282715 0.048981
0.831573 0.201263 0.022217
0.268677 0.307831 0.739380
0.271851 0.417114 0.873627
0.255554 0.511139 0.944519
0.230072 0.609741 0.980347
0.191589 0.701721 0.957825
0.124634 0.792877 0.868896
0.101959 0.872620 0.752014
0.162842 0.931946 0.625702
0.256226 0.508026 0.942627
0.230957 0.606689 0.980347
0.193420 0.698822 0.959747
0.126984 0.789551 0.873016
0.101959 0.870422 0.755768
0.158173 0.929993 0.631104
0.311035 0.973480 0.482086
0.468750 0.997681 0.352936
0.195618 0.695374 0.961975
0.128998 0.786774 0.876434
0.101959 0.868164 0.759521
0.154388 0.928345 0.635559
0.305695 0.972351 0.486725
0.464478 0.997253 0.356262
0.577423 1.000000 0.276367
0.671600 0.984589 0.230957
0.101959 0.865448 0.764038
0.150665 0.926697 0.639984
0.299316 0.971039 0.492340
0.460144 0.996796 0.359650
0.573578 1.000000 0.278656
0.668793 0.985413 0.232025
0.755585 0.950012 0.205994
0.842651 0.892822 0.203918
0.294006 0.969910 0.497009
0.455750 0.996307 0.363098
0.570374 1.000000 0.280609
0.665955 0.986206 0.233124
0.752350 0.951691 0.206757
0.839905 0.894989 0.203918
0.921295 0.818390 0.220734
0.976440 0.731659 0.223206
0.567139 1.000000 0.282593
0.663116 0.986969 0.234222
0.749664 0.953064 0.207428
0.837128 0.897125 0.203918
0.919006 0.821014 0.220215
0.975983 0.734436 0.223541
0.976440 0.638794 0.193207
0.976440 0.533630 0.146667
0.747009 0.954437 0.208069
0.833771 0.899689 0.203918
0.916687 0.823639 0.219696
0.974548 0.737732 0.223541
0.976440 0.642029 0.194519
0.976440 0.536926 0.148163
0.969452 0.436768 0.105927
0.926941 0.339050 0.069336
0.914368 0.826233 0.219147
0.973297 0.740509 0.223541
0.976440 0.645264 0.195831
0.976440 0.540894 0.149994
0.970398 0.439789 0.107056
0.928894 0.342712 0.070679
0.870758 0.250549 0.037872
0.803131 0.171783 0.014404
0.274506 0.351105 0.805084
0.267273 0.449799 0.901184
0.247009 0.547577 0.964020
0.219116 0.644653 0.980347
0.167755 0.735413 0.931030
0.104950 0.824188 0.827301
0.103882 0.896362 0.709320
0.213684 0.949554 0.571899
0.247803 0.544434 0.962555
0.220245 0.641205 0.980347
0.169922 0.732513 0.933655
0.106689 0.821045 0.831726
0.102264 0.894470 0.712952
0.208038 0.947845 0.577545
0.372589 0.984741 0.429993
0.513580 1.000000 0.318726
0.172089 0.729614 0.936188
0.108154 0.818390 0.835388
0.101959 0.892548 0.716583
0.203369 0.946381 0.582275
0.367371 0.983856 0.434326
0.509308 1.000000 0.321869
0.613434 0.997192 0.256561
0.703766 0.973694 0.219971
0.101959 0.890167 0.720917
0.198761 0.944916 0.586975
0.361053 0.982819 0.439545
0.505707 1.000000 0.324524
0.610413 0.997620 0.258118
0.701019 0.974731 0.220825
0.787018 0.931976 0.203918
0.874146 0.866272 0.209595
0.355774 0.981903 0.443970
0.502106 1.000000 0.327209
0.606750 0.998108 0.260010
0.698273 0.975769 0.221710
0.784241 0.933685 0.203918
0.871490 0.868652 0.209015
0.946198 0.786774 0.223541
0.976440 0.698181 0.214722
0.603699 0.998474 0.261627
0.695526 0.976776 0.222595
0.780945 0.935669 0.203918
0.868805 0.871033 0.208435
0.943848 0.790009 0.223541
0.976440 0.701172 0.215607
0.976440 0.600800 0.177032
0.976440 0.495728 0.129761
0.778229 0.937286 0.203918
0.865601 0.873840 0.207764
0.941864 0.792725 0.223541
0.976440 0.704132 0.216492
0.976440 0.604126 0.178497
0.976440 0.498932 0.131165
0.956604 0.401245 0.092529
0.906769 0.304199 0.056641
0.939850 0.795441 0.223541
0.976440 0.707672 0.217468
0.976440 0.607422 0.179932
0.976440 0.502808 0.132874
0.957855 0.404327 0.093689
0.908569 0.307159 0.057709
0.848022 0.220856 0.028168
0.767761 0.143555 0.008972
