Assets/_Volumes/LUT/turbo.cube
#Created by: Adobe Photoshop Export Color Lookup Plugin
TITLE "Turbo"
#LUT size
LUT_3D_SIZE 32
#data domain
DOMAIN_MIN 0.0 0.0 0.0
DOMAIN_MAX 1.0 1.0 1.0
#LUT data points
0.196075 0.086273 0.270599
0.201691 0.100647 0.304138
0.210693 0.122772 0.356812
0.221497 0.150208 0.420959
0.232391 0.180328 0.488373
0.241699 0.210358 0.550476
0.248810 0.235931 0.600555
0.256165 0.260162 0.649475
0.263550 0.286011 0.699982
0.269806 0.313477 0.748962
0.273865 0.342468 0.793396
0.274506 0.375122 0.833679
0.273529 0.400757 0.858795
0.271332 0.421448 0.877441
0.268188 0.444000 0.896484
0.264252 0.467560 0.914917
0.259735 0.491272 0.931824
0.254425 0.516144 0.947510
0.248718 0.540649 0.960724
0.242371 0.565796 0.971680
0.235565 0.590729 0.979431
0.228607 0.614563 0.980347
0.221191 0.638275 0.980347
0.213409 0.661072 0.978516
0.202728 0.683258 0.968994
0.188507 0.706360 0.954620
0.172089 0.729614 0.936188
0.155029 0.752167 0.914948
0.137695 0.774994 0.890320
0.121948 0.796753 0.864044
0.108154 0.818390 0.835388
0.101959 0.839050 0.805634
0.210419 0.122162 0.355316
0.221222 0.149475 0.419281
0.231873 0.178802 0.485046
0.241486 0.209595 0.549011
0.248627 0.235321 0.599304
0.255981 0.259552 0.648193
0.263367 0.285370 0.698730
0.269531 0.312042 0.746582
0.273773 0.341705 0.792328
0.274506 0.374237 0.832764
0.273621 0.399719 0.857849
0.271393 0.420929 0.876984
0.268280 0.443420 0.896027
0.264465 0.466339 0.914032
0.259857 0.490662 0.931396
0.254730 0.514893 0.946777
0.248871 0.540009 0.960419
0.242523 0.565155 0.971436
0.235931 0.589478 0.979126
0.228790 0.613953 0.980347
0.221375 0.637695 0.980347
0.213837 0.659912 0.978882
0.203064 0.682678 0.969269
0.188904 0.705780 0.955017
0.172943 0.728455 0.937195
0.155487 0.751587 0.915527
0.138123 0.774414 0.890961
0.122314 0.796204 0.864746
0.108459 0.817871 0.836121
0.101959 0.838043 0.807129
0.101959 0.857574 0.776917
0.101959 0.875671 0.746765
0.231628 0.178009 0.483368
0.241272 0.208832 0.547516
0.248260 0.234070 0.596863
0.255798 0.258911 0.646942
0.263031 0.284027 0.696228
0.269379 0.311340 0.745392
0.273712 0.340912 0.791229
0.274506 0.372528 0.830902
0.273682 0.399231 0.857361
0.271454 0.420380 0.876495
0.268433 0.442261 0.895081
0.264557 0.465759 0.913574
0.259979 0.490051 0.931000
0.254852 0.514252 0.946411
0.249023 0.539398 0.960114
0.242859 0.563904 0.970947
0.236084 0.588867 0.978973
0.228973 0.613373 0.980347
0.221741 0.636536 0.980347
0.214050 0.659363 0.979065
0.203400 0.682129 0.969574
0.189667 0.704651 0.955841
0.173340 0.727875 0.937714
0.155914 0.751007 0.916107
0.138947 0.773285 0.892242
0.122711 0.795654 0.865448
0.109070 0.816833 0.837585
0.101959 0.837555 0.807892
0.101959 0.857117 0.777679
0.101959 0.874817 0.748260
0.101959 0.891357 0.718750
0.115082 0.906464 0.688751
0.248077 0.233459 0.595612
0.255615 0.258301 0.645660
0.262848 0.283356 0.694977
0.269226 0.310638 0.744202
0.273560 0.339386 0.789063
0.274506 0.371704 0.829956
0.273712 0.398712 0.856903
0.271576 0.419281 0.875549
0.268524 0.441681 0.894623
0.264679 0.465149 0.913116
0.260223 0.488831 0.930145
0.255005 0.513641 0.946045
0.249176 0.538757 0.959808
0.243011 0.563293 0.970734
0.236267 0.588257 0.978821
0.229340 0.612152 0.980347
0.221954 0.635956 0.980347
0.214264 0.658813 0.979248
0.204010 0.680969 0.970154
0.190033 0.704071 0.956238
0.173767 0.727295 0.938202
0.156799 0.749847 0.917236
0.139374 0.772705 0.892883
0.123077 0.795105 0.866119
0.109406 0.816284 0.838318
0.101959 0.837036 0.808655
0.101959 0.856171 0.779175
0.101959 0.874359 0.748993
0.101959 0.890991 0.719482
0.114105 0.905701 0.690308
0.136780 0.919922 0.657410
0.166046 0.933197 0.622070
0.262665 0.282715 0.693726
0.268951 0.309235 0.741791
0.273468 0.338623 0.787933
0.274506 0.370819 0.829010
0.273804 0.397675 0.855957
0.271637 0.418732 0.875061
0.268616 0.441101 0.894135
0.264893 0.463959 0.912231
0.260345 0.488190 0.929749
0.255127 0.513000 0.945679
0.249481 0.537506 0.959167
0.243195 0.562653 0.970490
0.236603 0.587006 0.978485
0.229523 0.611542 0.980347
0.222137 0.635376 0.980347
0.214691 0.657684 0.979584
0.204315 0.680389 0.970459
0.190430 0.703491 0.956635
0.174622 0.726105 0.939209
0.157227 0.749268 0.917816
0.139801 0.772156 0.893524
0.123840 0.794006 0.867523
0.109711 0.815735 0.839050
0.101959 0.836029 0.810150
0.101959 0.855682 0.779938
0.101959 0.873932 0.749756
0.101959 0.890167 0.720917
0.113647 0.905334 0.691101
0.136108 0.919586 0.658264
0.164459 0.932587 0.623871
0.198761 0.944916 0.586975
0.237122 0.956207 0.549133
0.273376 0.337860 0.786865
0.274506 0.369141 0.827087
0.273834 0.397186 0.855499
0.271729 0.418213 0.874573
0.268799 0.439972 0.893188
0.264984 0.463348 0.911774
0.260468 0.487579 0.929291
0.255402 0.511780 0.944885
0.249634 0.536865 0.958862
0.243347 0.562012 0.970245
0.236786 0.586395 0.978333
0.229706 0.610931 0.980347
0.222504 0.634216 0.980347
0.214905 0.657135 0.979736
0.204620 0.679840 0.970734
0.191193 0.702301 0.957428
0.175049 0.725525 0.939697
0.157684 0.748688 0.918396
0.140656 0.771027 0.894806
0.124237 0.793457 0.868225
0.110046 0.815216 0.839752
0.101959 0.835510 0.810883
0.101959 0.855194 0.780701
0.101959 0.873077 0.751251
0.101959 0.889801 0.721649
0.113159 0.904968 0.691895
0.134827 0.918915 0.659973
0.163635 0.932251 0.624786
0.197845 0.944611 0.587891
0.235138 0.955658 0.551025
0.276093 0.965912 0.513031
0.318512 0.974976 0.475616
0.273895 0.396667 0.855011
0.271851 0.417114 0.873627
0.268860 0.439392 0.892731
0.265106 0.462769 0.911316
0.260712 0.486359 0.928467
0.255554 0.511139 0.944519
0.249786 0.536224 0.958557
0.243683 0.560760 0.969727
0.236969 0.585754 0.978149
0.230072 0.609741 0.980347
0.222717 0.633606 0.980347
0.215088 0.656555 0.979889
0.205231 0.678680 0.971313
0.191589 0.701721 0.957825
0.175476 0.724945 0.940186
0.158569 0.747559 0.919556
0.141083 0.770447 0.895447
0.124634 0.792877 0.868896
0.110687 0.814148 0.841217
0.101959 0.835022 0.811646
0.101959 0.854248 0.782227
0.101959 0.872620 0.752014
0.101959 0.889404 0.722382
0.112274 0.904236 0.693451
0.134186 0.918549 0.660828
0.162842 0.931946 0.625702
0.196045 0.944031 0.589783
0.234131 0.955383 0.551971
0.275055 0.965668 0.513977
0.316345 0.974548 0.477478
0.358917 0.982452 0.441315
0.399353 0.988922 0.408051
0.268951 0.438812 0.892242
0.265289 0.461578 0.910400
0.260834 0.485748 0.928040
0.255676 0.510498 0.944153
0.250092 0.534973 0.957916
0.243835 0.560150 0.969482
0.237122 0.585144 0.977997
0.230225 0.609100 0.980347
0.222900 0.633026 0.980347
0.215485 0.655426 0.980194
0.205536 0.678101 0.971588
0.191956 0.701172 0.958221
0.176331 0.723816 0.941132
0.158997 0.746979 0.920105
0.141510 0.769897 0.896088
0.125427 0.791779 0.870270
0.110992 0.813629 0.841949
0.101959 0.834503 0.812378
0.101959 0.853790 0.782959
0.101959 0.872192 0.752747
0.101959 0.888611 0.723846
0.111816 0.903870 0.694214
0.133545 0.918213 0.661682
0.161285 0.931274 0.627502
0.195129 0.943726 0.590729
0.233154 0.955109 0.552917
0.272949 0.965179 0.515869
0.315308 0.974335 0.478394
0.357880 0.982269 0.442200
0.398346 0.988770 0.408875
0.437500 0.994141 0.377502
0.472107 0.998016 0.350342
0.260956 0.485138 0.927612
0.255951 0.509277 0.943390
0.250244 0.534332 0.957581
0.243988 0.559509 0.969238
0.237488 0.583923 0.977661
0.230408 0.608490 0.980347
0.223267 0.631836 0.980347
0.215698 0.654877 0.980347
0.205811 0.677521 0.971863
0.192688 0.700012 0.958984
0.176758 0.723236 0.941650
0.159424 0.746399 0.920654
0.142365 0.768738 0.897339
0.125824 0.791229 0.870972
0.111328 0.813080 0.842682
0.101959 0.833496 0.813904
0.101959 0.853302 0.783722
0.101959 0.871735 0.753510
0.101959 0.888184 0.724548
0.111359 0.903503 0.695007
0.132294 0.917511 0.663361
0.160522 0.930969 0.628387
0.194214 0.943420 0.591644
0.231171 0.954590 0.554840
0.271912 0.964935 0.516815
0.314240 0.974121 0.479309
0.355774 0.981903 0.443970
0.397339 0.988617 0.409698
0.436554 0.994019 0.378235
0.471252 0.997955 0.350983
0.502106 1.000000 0.327209
0.529663 1.000000 0.307220
0.250397 0.533722 0.957245
0.244324 0.558258 0.968689
0.237640 0.583282 0.977478
0.230621 0.607910 0.980347
0.223450 0.631256 0.980347
0.215881 0.654327 0.980347
0.206421 0.676392 0.972412
0.193054 0.699432 0.959351
0.177155 0.722656 0.942108
0.160339 0.745239 0.921783
0.142822 0.768188 0.897949
0.126190 0.790680 0.871674
0.111969 0.812012 0.844147
0.101959 0.832977 0.814636
0.101959 0.852814 0.784485
0.101959 0.870850 0.755005
0.101959 0.887787 0.725281
0.110504 0.902771 0.696564
0.131683 0.917145 0.664215
0.159729 0.930634 0.629303
0.192444 0.942841 0.593506
0.230164 0.954315 0.555786
0.270874 0.964661 0.517761
0.312103 0.973694 0.481171
0.354706 0.981720 0.444855
0.396301 0.988464 0.410553
0.434662 0.993774 0.379730
0.470428 0.997864 0.351654
0.500671 1.000000 0.328339
0.528961 1.000000 0.307709
0.556000 1.000000 0.289581
0.581238 1.000000 0.274139
0.237823 0.582672 0.977295
0.230957 0.606689 0.980347
0.223633 0.630676 0.980347
0.216248 0.653198 0.980347
0.206696 0.675812 0.972687
0.193420 0.698822 0.959747
0.178009 0.721466 0.943054
0.160767 0.744659 0.922363
0.143250 0.767609 0.898590
0.126984 0.789551 0.873016
0.112305 0.811462 0.844849
0.101959 0.832489 0.815399
0.101959 0.851868 0.786011
0.101959 0.870422 0.755768
0.101959 0.886993 0.726776
0.110077 0.902405 0.697327
0.131042 0.916809 0.665070
0.158173 0.929993 0.631104
0.191559 0.942535 0.594452
0.229187 0.954041 0.556732
0.268768 0.964172 0.519684
0.311035 0.973480 0.482086
0.353638 0.981537 0.445740
0.394257 0.988159 0.412201
0.433716 0.993652 0.380493
0.469604 0.997772 0.352295
0.499908 1.000000 0.328888
0.528290 1.000000 0.308167
0.554688 1.000000 0.290436
0.580627 1.000000 0.274506
0.605530 0.998260 0.260651
0.628967 0.994659 0.248962
0.223816 0.630096 0.980347
0.216461 0.652618 0.980347
0.207001 0.675232 0.972961
0.194153 0.697693 0.960480
0.178406 0.720886 0.943542
0.161194 0.744080 0.922913
0.144104 0.766479 0.899841
0.127380 0.789001 0.873718
0.112640 0.810944 0.845581
0.101959 0.831451 0.816895
0.101959 0.851379 0.786743
0.101959 0.869965 0.756500
0.101959 0.886566 0.727509
0.109650 0.902008 0.698090
0.129822 0.916107 0.666718
0.157410 0.929657 0.631989
0.190643 0.942230 0.595367
0.227234 0.953491 0.558655
0.267731 0.963928 0.520630
0.309967 0.973236 0.483032
0.351532 0.981171 0.447510
0.393250 0.988007 0.413025
0.432770 0.993561 0.381226
0.467896 0.997620 0.353607
0.499207 1.000000 0.329437
0.526886 1.000000 0.309174
0.554016 1.000000 0.290863
0.579987 1.000000 0.274872
0.604309 0.998413 0.261292
0.628357 0.994781 0.249237
0.651672 0.989899 0.238861
0.673859 0.983917 0.230133
0.207581 0.674103 0.973450
0.194519 0.697113 0.960876
0.178833 0.720306 0.944000
0.162079 0.742950 0.924011
0.144531 0.765900 0.900482
0.127777 0.788452 0.874390
0.113312 0.809845 0.847015
0.101959 0.830933 0.817627
0.101959 0.850891 0.787506
0.101959 0.869080 0.758026
0.101959 0.886169 0.728210
0.108795 0.901276 0.699615
0.129242 0.915771 0.667572
0.156647 0.929321 0.632874
0.188873 0.941620 0.597229
0.226257 0.953217 0.559601
0.266693 0.963684 0.521576
0.307831 0.972809 0.484894
0.350464 0.980957 0.448395
0.392242 0.987854 0.413849
0.430878 0.993317 0.382751
0.467041 0.997528 0.354248
0.498474 1.000000 0.329987
0.526215 1.000000 0.309662
0.553345 1.000000 0.291290
0.578705 1.000000 0.275635
0.603699 0.998474 0.261627
0.627747 0.994873 0.249542
0.650513 0.990173 0.239349
0.673279 0.984100 0.230316
0.695526 0.976776 0.222595
0.716827 0.968445 0.216064
0.179657 0.719147 0.944946
0.162506 0.742371 0.924561
0.144989 0.765320 0.901093
0.128601 0.787323 0.875763
0.113647 0.809326 0.847748
0.101959 0.830414 0.818390
0.101959 0.849915 0.789032
0.101959 0.868622 0.758789
0.101959 0.885773 0.728943
0.108398 0.900879 0.700378
0.128601 0.915405 0.668427
0.155121 0.928680 0.634674
0.187988 0.941315 0.598175
0.225281 0.952911 0.560547
0.264618 0.963196 0.523468
0.306763 0.972595 0.485809
0.349396 0.980774 0.449310
0.390167 0.987549 0.415527
0.429932 0.993195 0.383514
0.466217 0.997437 0.354919
0.497009 1.000000 0.331085
0.525513 1.000000 0.310150
0.552032 1.000000 0.292145
0.578064 1.000000 0.276001
0.603088 0.998566 0.261963
0.626587 0.995087 0.250092
0.649963 0.990295 0.239594
0.672729 0.984253 0.230560
0.694427 0.977173 0.222961
0.716278 0.968658 0.216217
0.737854 0.958954 0.210358
0.758789 0.948273 0.205261
0.145844 0.764191 0.902344
0.128998 0.786774 0.876434
0.113983 0.808777 0.848450
0.102325 0.829376 0.819855
0.101959 0.849457 0.789795
0.101959 0.868164 0.759521
0.101959 0.884949 0.730408
0.107971 0.900513 0.701141
0.127441 0.914703 0.670074
0.154388 0.928345 0.635559
0.187103 0.941010 0.599091
0.223328 0.952362 0.562408
0.263580 0.962952 0.524414
0.305695 0.972351 0.486725
0.347260 0.980377 0.451080
0.389160 0.987366 0.416351
0.428955 0.993042 0.384277
0.464478 0.997253 0.356262
0.496307 1.000000 0.331635
0.524811 1.000000 0.310638
0.551361 1.000000 0.292572
0.577423 1.000000 0.276367
0.601868 0.998688 0.262604
0.625977 0.995209 0.250397
0.649384 0.990448 0.239838
0.671600 0.984589 0.230957
0.693878 0.977356 0.223145
0.715729 0.968903 0.216400
0.736786 0.959442 0.210632
0.758270 0.948578 0.205383
0.779846 0.936310 0.203918
0.801422 0.922699 0.203918
0.114685 0.807678 0.849884
0.102570 0.828888 0.820618
0.101959 0.848969 0.790558
0.101959 0.867279 0.761017
0.101959 0.884552 0.731171
0.107574 0.900146 0.701874
0.126831 0.914368 0.670898
0.153625 0.928009 0.636444
0.185364 0.940399 0.600952
0.222351 0.952087 0.563385
0.262573 0.962708 0.525360
0.303558 0.971924 0.488617
0.346222 0.980194 0.451965
0.388123 0.987213 0.417206
0.427032 0.992798 0.385803
0.463623 0.997162 0.356934
0.495544 1.000000 0.332214
0.523438 1.000000 0.311615
0.550690 1.000000 0.293030
0.576172 1.000000 0.277130
0.601227 0.998779 0.262939
0.625397 0.995300 0.250671
0.648224 0.990723 0.240326
0.671021 0.984772 0.231171
0.693329 0.977570 0.223328
0.714630 0.969360 0.216705
0.736267 0.959717 0.210754
0.757721 0.948853 0.205505
0.778778 0.936981 0.203918
0.800873 0.923065 0.203918
0.822632 0.907990 0.203918
0.844879 0.891083 0.203918
0.101959 0.847992 0.792053
0.101959 0.866821 0.761780
0.101959 0.884125 0.731903
0.106812 0.899414 0.703400
0.126251 0.914001 0.671722
0.152893 0.927704 0.637329
0.184479 0.940094 0.601898
0.221375 0.951813 0.564331
0.260498 0.962189 0.527252
0.302521 0.971710 0.489532
0.345154 0.980011 0.452881
0.386078 0.986908 0.418884
0.426086 0.992676 0.386566
0.462769 0.997070 0.357605
0.494110 1.000000 0.333344
0.522705 1.000000 0.312103
0.550018 1.000000 0.293457
0.575531 1.000000 0.277527
0.600616 0.998840 0.263275
0.624786 0.995392 0.250946
0.647644 0.990845 0.240570
0.670471 0.984924 0.231384
0.692230 0.977936 0.223694
0.714111 0.969574 0.216858
0.735718 0.959961 0.210907
0.756653 0.949432 0.205750
0.778229 0.937286 0.203918
0.800293 0.923431 0.203918
0.822083 0.908386 0.203918
0.844330 0.891510 0.203918
0.866119 0.873383 0.207855
0.886688 0.854645 0.212494
0.101959 0.883301 0.733368
0.106415 0.899017 0.704163
0.125671 0.913635 0.672577
0.151398 0.927032 0.639099
0.183624 0.939789 0.602814
0.220428 0.951538 0.565277
0.259460 0.961945 0.528198
0.301453 0.971466 0.490479
0.343018 0.979614 0.454681
0.385040 0.986755 0.419739
0.425110 0.992554 0.387360
0.461029 0.996887 0.358948
0.493347 0.999908 0.333893
0.522034 1.000000 0.312622
0.548706 1.000000 0.294342
0.574890 1.000000 0.277893
0.600006 0.998901 0.263611
0.623596 0.995605 0.251526
0.647064 0.990967 0.240814
0.669342 0.985260 0.231812
0.691681 0.978149 0.223877
0.713562 0.969788 0.217010
0.734650 0.960480 0.211212
0.756104 0.949738 0.205872
0.777679 0.937622 0.203918
0.799194 0.924164 0.203918
0.821503 0.908783 0.203918
0.843750 0.891937 0.203918
0.865051 0.874298 0.207642
0.886169 0.855133 0.212372
0.905762 0.835541 0.217072
0.924469 0.814697 0.221436
0.124542 0.912933 0.674225
0.150665 0.926697 0.639984
0.182739 0.939484 0.603729
0.218475 0.950989 0.567169
0.258423 0.961700 0.529144
0.299316 0.971039 0.492340
0.341949 0.979431 0.455566
0.384003 0.986572 0.420563
0.423187 0.992310 0.388885
0.460144 0.996796 0.359650
0.492615 0.999847 0.334473
0.520630 1.000000 0.313629
0.548035 1.000000 0.294769
0.574249 1.000000 0.278290
0.598785 0.999054 0.264282
0.623016 0.995697 0.251801
0.646484 0.991119 0.241058
0.668793 0.985413 0.232025
0.691101 0.978333 0.224060
0.712463 0.970245 0.217346
0.734100 0.960724 0.211334
0.755585 0.950012 0.205994
0.776581 0.938293 0.203918
0.798645 0.924530 0.203918
0.820953 0.909180 0.203918
0.842651 0.892822 0.203918
0.864532 0.874756 0.207520
0.885651 0.855621 0.212250
0.905273 0.836060 0.216949
0.924011 0.815216 0.221344
0.940643 0.794373 0.223541
0.955719 0.772522 0.223541
0.181030 0.938873 0.605591
0.217529 0.950684 0.568115
0.257385 0.961426 0.530090
0.298248 0.970795 0.493286
0.340912 0.979248 0.456451
0.381927 0.986267 0.422272
0.422211 0.992157 0.389648
0.459290 0.996704 0.360352
0.491119 0.999725 0.335602
0.519928 1.000000 0.314117
0.547363 1.000000 0.295197
0.572968 1.000000 0.279053
0.598175 0.999115 0.264618
0.622437 0.995789 0.252106
0.645325 0.991364 0.241577
0.668213 0.985565 0.232239
0.690002 0.978729 0.224426
0.711945 0.970459 0.217499
0.733551 0.960999 0.211487
0.754517 0.950562 0.206268
0.776031 0.938599 0.203918
0.798096 0.924896 0.203918
0.819824 0.909973 0.203918
0.842102 0.893250 0.203918
0.863983 0.875244 0.207428
0.884613 0.856598 0.212006
0.904785 0.836578 0.216827
0.923126 0.816284 0.221130
0.940247 0.794891 0.223541
0.955383 0.773071 0.223541
0.967865 0.751587 0.223541
0.976440 0.729431 0.222778
0.255341 0.960938 0.532013
0.297211 0.970581 0.494202
0.338776 0.978851 0.458282
0.380920 0.986084 0.423126
0.421234 0.992004 0.390442
0.457520 0.996490 0.361694
0.490356 0.999664 0.336212
0.519196 1.000000 0.314636
0.546021 1.000000 0.296082
0.572327 1.000000 0.279449
0.597534 0.999176 0.264954
0.621246 0.996002 0.252686
0.644745 0.991486 0.241821
0.667084 0.985901 0.232666
0.689453 0.978912 0.224609
0.711395 0.970673 0.217651
0.732483 0.961487 0.211761
0.753967 0.950836 0.206390
0.775482 0.938904 0.203918
0.796967 0.925629 0.203918
0.819275 0.910400 0.203918
0.841553 0.893677 0.203918
0.862885 0.876160 0.207214
0.884125 0.857086 0.211884
0.904297 0.837067 0.216736
0.922668 0.816803 0.221039
0.939850 0.795441 0.223541
0.954681 0.774200 0.223541
0.967560 0.752136 0.223541
0.976440 0.729980 0.222870
0.976440 0.707672 0.217468
0.976440 0.683655 0.210052
0.337708 0.978638 0.459167
0.379883 0.985931 0.423981
0.419281 0.991760 0.391998
0.456635 0.996399 0.362396
0.489624 0.999603 0.336792
0.517822 1.000000 0.315643
0.545349 1.000000 0.296539
0.571686 1.000000 0.279816
0.596313 0.999298 0.265625
0.620636 0.996094 0.252960
0.644165 0.991608 0.242065
0.666504 0.986053 0.232880
0.688904 0.979095 0.224792
0.710297 0.971130 0.217987
0.731964 0.961731 0.211914
0.753418 0.951141 0.206512
0.774414 0.939545 0.203918
0.796417 0.925995 0.203918
0.818726 0.910797 0.203918
0.840454 0.894562 0.203918
0.862366 0.876648 0.207092
0.883606 0.857574 0.211761
0.903320 0.838104 0.216492
0.922211 0.817352 0.220947
0.939026 0.796509 0.223541
0.954315 0.774750 0.223541
0.967285 0.752686 0.223541
0.976440 0.731110 0.223114
0.976440 0.708252 0.217621
0.976440 0.684265 0.210266
0.976440 0.659912 0.201538
0.976440 0.634277 0.191345
0.418304 0.991608 0.392792
0.455750 0.996307 0.363098
0.488068 0.999481 0.337952
0.517120 1.000000 0.316132
0.544678 1.000000 0.296997
0.570374 1.000000 0.280609
0.595673 0.999359 0.265961
0.620026 0.996185 0.253265
0.643005 0.991882 0.242584
0.665955 0.986206 0.233124
0.687805 0.979462 0.225159
0.709747 0.971344 0.218140
0.731415 0.962006 0.212036
0.752350 0.951691 0.206757
0.773865 0.939880 0.203918
0.795868 0.926361 0.203918
0.817596 0.911591 0.203918
0.839905 0.894989 0.203918
0.861816 0.877106 0.206970
0.882538 0.858551 0.211517
0.902832 0.838593 0.216370
0.921753 0.817871 0.220825
0.938629 0.797058 0.223541
0.953979 0.775269 0.223541
0.966675 0.753784 0.223541
0.976440 0.731659 0.223206
0.976440 0.708862 0.217804
0.976440 0.685486 0.210663
0.976440 0.660583 0.201782
0.976440 0.634918 0.191620
0.976440 0.609406 0.180786
0.976440 0.582886 0.169037
0.487305 0.999420 0.338531
0.516388 1.000000 0.316650
0.543335 1.000000 0.297882
0.569733 1.000000 0.281006
0.595062 0.999420 0.266296
0.618835 0.996399 0.253845
0.642426 0.992004 0.242859
0.665375 0.986359 0.233337
0.687225 0.979645 0.225372
0.709198 0.971558 0.218292
0.730316 0.962494 0.212341
0.751831 0.951965 0.206909
0.773315 0.940186 0.203918
0.794739 0.927063 0.203918
0.817047 0.911987 0.203918
0.839325 0.895416 0.203918
0.860748 0.878021 0.206757
0.882019 0.859039 0.211395
0.902344 0.839111 0.216248
0.920837 0.818909 0.220642
0.938232 0.797607 0.223541
0.953247 0.776367 0.223541
0.966400 0.754333 0.223541
0.976440 0.732208 0.223328
0.976440 0.710022 0.218109
0.976440 0.686096 0.210876
0.976440 0.661194 0.202026
0.976440 0.636200 0.192169
0.976440 0.610046 0.181091
0.976440 0.583557 0.169342
0.976440 0.557526 0.157562
0.976440 0.530975 0.145477
0.542633 1.000000 0.298340
0.569092 1.000000 0.281403
0.593811 0.999573 0.266998
0.618225 0.996490 0.254181
0.641846 0.992126 0.243103
0.664246 0.986664 0.233765
0.686676 0.979828 0.225555
0.708649 0.971771 0.218475
0.729797 0.962738 0.212463
0.751282 0.952240 0.207031
0.772217 0.940796 0.203918
0.794189 0.927429 0.203918
0.816498 0.912384 0.203918
0.838226 0.896271 0.203918
0.860199 0.878479 0.206635
0.881500 0.859528 0.211273
0.901337 0.840149 0.216003
0.920380 0.819427 0.220520
0.937805 0.798126 0.223541
0.952881 0.776917 0.223541
0.966095 0.754913 0.223541
0.976440 0.733307 0.223541
0.976440 0.710602 0.218262
0.976440 0.686707 0.211090
0.976440 0.662476 0.202484
0.976440 0.636871 0.192413
0.976440 0.610718 0.181366
0.976440 0.584869 0.169952
0.976440 0.558197 0.157867
0.976440 0.531647 0.145782
0.976440 0.506073 0.134308
0.976440 0.480408 0.123169
0.593201 0.999634 0.267334
0.617645 0.996582 0.254456
0.640686 0.992401 0.243622
0.663666 0.986816 0.233978
0.686127 0.980042 0.225739
0.707581 0.972198 0.218811
0.729248 0.962982 0.212616
0.750214 0.952789 0.207306
0.771698 0.941132 0.203918
0.793640 0.927765 0.203918
0.815369 0.913177 0.203918
0.837677 0.896698 0.203918
0.859650 0.878937 0.206543
0.880463 0.860504 0.211029
0.900848 0.840637 0.215881
0.919922 0.819977 0.220428
0.936981 0.799225 0.223541
0.952515 0.777466 0.223541
0.965485 0.756012 0.223541
0.976196 0.733856 0.223541
0.976440 0.711182 0.218414
0.976440 0.687927 0.211487
0.976440 0.663086 0.202728
0.976440 0.637512 0.192688
0.976440 0.612030 0.181946
0.976440 0.585541 0.170227
0.976440 0.558868 0.158173
0.976440 0.532959 0.146362
0.976440 0.506714 0.134583
0.976440 0.481659 0.123718
0.975189 0.456726 0.113525
0.968079 0.432526 0.104309
0.640076 0.992523 0.243866
0.663116 0.986969 0.234222
0.685028 0.980408 0.226105
0.707031 0.972412 0.218964
0.728699 0.963226 0.212769
0.749664 0.953064 0.207428
0.771149 0.941437 0.203918
0.792511 0.928497 0.203918
0.814819 0.913544 0.203918
0.837128 0.897125 0.203918
0.858551 0.879852 0.206329
0.879944 0.860992 0.210907
0.900360 0.841156 0.215759
0.919006 0.821014 0.220215
0.936554 0.799744 0.223541
0.952148 0.778015 0.223541
0.965210 0.756561 0.223541
0.975983 0.734436 0.223541
0.976440 0.712341 0.218750
0.976440 0.688538 0.211700
0.976440 0.663727 0.202972
0.976440 0.638794 0.193207
0.976440 0.612671 0.182220
0.976440 0.586212 0.170532
0.976440 0.560211 0.158752
0.976440 0.533630 0.146667
0.976440 0.507355 0.134888
0.976440 0.482300 0.123993
0.975342 0.457367 0.113770
0.968475 0.433746 0.104767
0.959778 0.409241 0.095551
0.949493 0.384552 0.086273
0.684448 0.980591 0.226318
0.706482 0.972656 0.219147
0.727631 0.963715 0.213043
0.749146 0.953369 0.207550
0.770081 0.942047 0.203918
0.791962 0.928833 0.203918
0.814240 0.913940 0.203918
0.835999 0.897980 0.203918
0.858002 0.880310 0.206238
0.879425 0.861481 0.210785
0.899353 0.842163 0.215546
0.918549 0.821533 0.220123
0.936157 0.800293 0.223541
0.951447 0.779114 0.223541
0.964905 0.757111 0.223541
0.975494 0.735535 0.223541
0.976440 0.712921 0.218903
0.976440 0.689148 0.211884
