Assets/_Volumes/LUT/turbo.cube
#Created by: Adobe Photoshop Export Color Lookup Plugin
TITLE "Turbo"
#LUT size
LUT_3D_SIZE 5
#data domain
#LUT data points
DOMAIN_MIN 0.000000 0.000000 0.000000
DOMAIN_MAX 0.903226 0.903226 0.903226
0.196075 0.086273 0.270599
0.256165 0.260162 0.649475
0.268188 0.444000 0.896484
0.228607 0.614563 0.980347
0.137695 0.774994 0.890320
0.268951 0.438812 0.892242
0.230225 0.609100 0.980347
0.141510 0.769897 0.896088
0.111816 0.903870 0.694214
0.357880 0.982269 0.442200
0.145844 0.764191 0.902344
0.107971 0.900513 0.701141
0.347260 0.980377 0.451080
0.577423 1.000000 0.276367
0.736786 0.959442 0.210632
0.337708 0.978638 0.459167
0.571686 1.000000 0.279816
0.731964 0.961731 0.211914
0.883606 0.857574 0.211761
0.976440 0.708252 0.217621
0.727112 0.963959 0.213196
0.878357 0.862427 0.210541
0.976440 0.713501 0.219055
0.976440 0.535614 0.147583
0.938751 0.361725 0.077728
0.216797 0.138092 0.392883
0.272369 0.329529 0.774567
0.256744 0.505524 0.941071
0.207855 0.673523 0.973724
0.101959 0.830414 0.818390
0.258087 0.499298 0.937103
0.210266 0.668427 0.975861
0.104401 0.825226 0.825806
0.180176 0.938568 0.606506
0.457520 0.996490 0.361694
0.106964 0.820526 0.832458
0.172577 0.935760 0.614777
0.449493 0.995575 0.368042
0.639496 0.992615 0.244141
0.791962 0.928833 0.203918
0.441223 0.994598 0.374542
0.633667 0.993805 0.246796
0.787018 0.931976 0.203918
0.931915 0.805664 0.223022
0.976440 0.645264 0.195831
0.782043 0.934998 0.203918
0.928009 0.810455 0.222198
0.976440 0.651031 0.198120
0.976440 0.469727 0.118744
0.904572 0.300690 0.055389
0.242737 0.214172 0.557861
0.273285 0.403320 0.861176
0.241516 0.568939 0.972839
0.169922 0.732513 0.933655
0.101959 0.878265 0.742279
0.243011 0.563293 0.970734
0.173767 0.727295 0.938202
0.101959 0.874359 0.748993
0.279236 0.966614 0.510193
0.534485 1.000000 0.303894
0.101959 0.870422 0.755768
0.268768 0.964172 0.519684
0.528290 1.000000 0.308167
0.696625 0.976349 0.222229
0.848724 0.887970 0.204529
0.522034 1.000000 0.312622
0.691681 0.978149 0.223877
0.843750 0.891937 0.203918
0.968719 0.749908 0.223541
0.976440 0.578888 0.167236
0.838226 0.896271 0.203918
0.966095 0.754913 0.223541
0.976440 0.584869 0.169952
0.959076 0.407410 0.094849
0.865692 0.243683 0.035583
0.261414 0.278137 0.684906
0.265503 0.460388 0.909485
0.223450 0.631256 0.980347
0.126190 0.790680 0.871674
0.131683 0.917145 0.664215
0.225128 0.625946 0.980347
0.130219 0.785065 0.878448
0.126251 0.914001 0.671722
0.386078 0.986908 0.418884
0.600616 0.998840 0.263275
0.121216 0.910797 0.679108
0.376770 0.985413 0.426544
0.594452 0.999481 0.266663
0.751831 0.951965 0.206909
0.901825 0.839630 0.216125
0.588806 1.000000 0.269806
0.747009 0.954437 0.208069
0.897369 0.844177 0.215057
0.976440 0.691589 0.212646
0.976440 0.511261 0.136597
0.892822 0.848694 0.213959
0.976440 0.696991 0.214355
0.976440 0.517151 0.139252
0.930237 0.345154 0.071594
0.825806 0.194702 0.020325
0.274506 0.351105 0.805084
0.253021 0.522400 0.951111
0.199097 0.689606 0.965454
0.101959 0.844055 0.798096
0.213684 0.949554 0.571899
0.202087 0.684418 0.968353
0.101959 0.839569 0.804901
0.205231 0.946960 0.580383
0.481079 0.998871 0.343384
0.660278 0.987732 0.235352
0.196045 0.944031 0.589783
0.473755 0.998199 0.349060
0.655121 0.989075 0.237427
0.807556 0.918579 0.203918
0.946960 0.785675 0.223541
0.649963 0.990295 0.239594
0.802521 0.921967 0.203918
0.943451 0.790558 0.223541
0.976440 0.627747 0.188660
0.972504 0.447052 0.109802
0.939850 0.795441 0.223541
0.976440 0.633606 0.191071
0.974030 0.452484 0.111847
0.894196 0.284424 0.049591
0.767761 0.143555 0.008972
